luts/film_fade.cube
#Created by: Adobe Photoshop Export Color Lookup Plugin
TITLE "film fade"
#LUT size
LUT_3D_SIZE 9
#data domain
DOMAIN_MIN 0.0 0.0 0.0
DOMAIN_MAX 1.0 1.0 1.0
#LUT data points
0.000000 0.003937 0.000000
0.060791 0.000000 0.000000
0.182343 0.000000 0.000977
0.362244 0.002441 0.003937
0.533325 0.000000 0.000000
0.691162 0.000000 0.003937
0.828430 0.002930 0.000000
0.950989 0.003937 0.000000
0.996063 0.003937 0.000000
0.007843 0.041656 0.022552
0.045593 0.057343 0.023041
0.203918 0.065186 0.000488
0.376465 0.019623 0.000000
0.539215 0.001953 0.002930
0.688721 0.000000 0.000000
0.827454 0.001465 0.002441
0.957855 0.000000 0.000000
1.000000 0.063721 0.008331
0.012756 0.115692 0.051971
0.049011 0.118134 0.056854
0.180389 0.161774 0.026459
0.383331 0.185791 0.004913
0.549011 0.198029 0.000977
0.698029 0.191162 0.005402
0.833344 0.200989 0.000977
0.955872 0.212738 0.005402
0.993134 0.239227 0.000000
0.049500 0.207367 0.078430
0.097534 0.199005 0.087738
0.168152 0.232849 0.075500
0.338715 0.291168 0.016663
0.543152 0.327942 0.000488
0.695099 0.350006 0.002930
0.836273 0.356384 0.000000
0.959320 0.361755 0.001953
1.000000 0.369110 0.000000
0.131378 0.284302 0.103912
0.159302 0.279907 0.101471
0.200989 0.274506 0.110779
0.297058 0.332855 0.099030
0.478424 0.405884 0.035309
0.689697 0.456360 0.000000
0.831360 0.480408 0.002930
0.954895 0.496582 0.000000
0.996063 0.509796 0.000000
0.192657 0.350494 0.129425
0.202454 0.344604 0.129913
0.246582 0.334808 0.141663
0.300995 0.362732 0.141174
0.421570 0.433319 0.122559
0.616669 0.521088 0.080872
0.819122 0.584320 0.004425
0.945587 0.613220 0.000000
0.997559 0.630402 0.007843
0.247070 0.419617 0.148041
0.258331 0.419128 0.157349
0.285309 0.413727 0.157837
0.328430 0.403931 0.176483
0.420593 0.472534 0.175476
0.565674 0.560791 0.179413
0.750977 0.648041 0.159790
0.932831 0.712250 0.167145
0.997070 0.743134 0.123535
0.336273 0.548035 0.214203
0.350983 0.544617 0.215210
0.374023 0.542633 0.229401
0.423035 0.538727 0.238739
0.485291 0.567657 0.261780
0.592163 0.644623 0.277466
0.736755 0.722534 0.289703
0.891174 0.795105 0.293640
0.999512 0.840210 0.315186
0.592163 0.807831 0.450989
0.600006 0.807831 0.461761
0.634308 0.804901 0.482361
0.669128 0.809326 0.495575
0.717651 0.815674 0.525482
0.783325 0.857849 0.545105
0.850983 0.896088 0.563721
0.927460 0.940674 0.573029
1.000000 0.964691 0.568634
0.000000 0.003937 0.061768
0.049500 0.007843 0.062256
0.193146 0.000000 0.073517
0.375488 0.002441 0.048035
0.533325 0.000488 0.041168
0.694611 0.000000 0.016663
0.831360 0.000000 0.002930
0.962250 0.000488 0.000000
1.000000 0.003937 0.003937
0.003418 0.065186 0.065674
0.063721 0.072540 0.069611
0.212250 0.061768 0.070587
0.384796 0.003906 0.058319
0.541168 0.000000 0.037750
0.696075 0.000000 0.006378
0.832855 0.001465 0.000000
0.960297 0.000488 0.007355
1.000000 0.042633 0.006866
0.043640 0.156860 0.087738
0.090698 0.146088 0.090698
0.201477 0.180389 0.082367
0.390686 0.200012 0.046082
0.553925 0.200989 0.011261
0.700989 0.192657 0.001953
0.834808 0.193146 0.000000
0.960785 0.208832 0.000000
0.995575 0.240692 0.000000
0.093140 0.232361 0.100983
0.136261 0.233337 0.112244
0.201965 0.241669 0.113739
0.356873 0.301483 0.077454
0.549011 0.336273 0.020111
0.701477 0.350983 0.000000
0.836273 0.354889 0.000000
0.953430 0.360291 0.000000
0.995575 0.373047 0.000000
0.154419 0.305389 0.124023
0.179901 0.303436 0.125000
0.227936 0.292633 0.135773
0.316162 0.339691 0.130890
0.487732 0.415192 0.104889
0.690674 0.465698 0.032349
0.832367 0.481384 0.000977
0.959808 0.500000 0.000488
0.999512 0.508820 0.002441
0.206360 0.364227 0.143127
0.224030 0.358826 0.146576
0.259796 0.352448 0.152466
0.312256 0.366180 0.160309
0.433319 0.438721 0.156860
0.622070 0.526947 0.134308
0.820587 0.587738 0.104401
0.947540 0.613739 0.005890
1.000000 0.631866 0.000000
0.253418 0.429901 0.165192
0.270599 0.426483 0.163239
0.296570 0.421082 0.169128
0.339691 0.413239 0.188721
0.423523 0.471558 0.191681
0.567169 0.561768 0.196564
0.756378 0.650482 0.196564
0.927460 0.713715 0.208832
0.999023 0.743134 0.174500
0.338715 0.552948 0.219116
0.348541 0.552460 0.222534
0.381378 0.547058 0.230377
0.426483 0.543640 0.249512
0.486267 0.565674 0.268127
0.591675 0.644623 0.285797
0.737244 0.724518 0.303436
0.881378 0.796570 0.322052
0.996582 0.836761 0.335297
0.588226 0.807831 0.458832
0.599518 0.804413 0.469604
0.622559 0.810791 0.474518
0.662262 0.810303 0.495575
0.717651 0.813721 0.525482
0.776947 0.850983 0.546570
0.848053 0.895111 0.565674
0.934326 0.937256 0.573029
1.000000 0.968140 0.580383
0.000000 0.008820 0.144104
0.017639 0.012756 0.152954
0.188232 0.002930 0.158813
0.381378 0.000000 0.174011
0.548035 0.000000 0.164703
0.704407 0.000977 0.129913
0.837250 0.002930 0.114716
0.963226 0.000488 0.098541
1.000000 0.002930 0.072540
0.002930 0.085785 0.157349
0.027954 0.073029 0.157349
0.223053 0.072540 0.165192
0.393616 0.002441 0.172058
0.555878 0.002441 0.149017
0.705872 0.002441 0.126465
0.845093 0.000488 0.120575
0.960297 0.002930 0.090210
0.996582 0.000977 0.062744
0.000000 0.183319 0.160797
0.089203 0.192169 0.157837
0.248047 0.209808 0.167633
0.413727 0.196075 0.152466
0.560791 0.181366 0.147064
0.705872 0.170593 0.128418
0.842163 0.175476 0.107849
0.961761 0.188721 0.089203
0.999023 0.215698 0.048035
0.136780 0.283813 0.160797
0.194122 0.286285 0.168640
0.268127 0.283813 0.177948
0.391174 0.325989 0.180389
0.563721 0.350494 0.155884
0.711761 0.354401 0.128937
0.839203 0.353912 0.110779
0.959320 0.356873 0.075012
0.994110 0.368134 0.031372
0.215698 0.354889 0.180389
0.233826 0.351471 0.174500
0.282349 0.339203 0.183319
0.350006 0.352448 0.187744
0.511780 0.431366 0.189209
0.700989 0.475006 0.179901
0.840210 0.490204 0.133331
0.960785 0.497070 0.076477
0.998047 0.508820 0.033325
0.243134 0.400970 0.184326
0.261261 0.398529 0.189209
0.299988 0.389221 0.195587
0.343628 0.376953 0.201477
0.447540 0.447540 0.208832
0.635773 0.537750 0.219604
0.825500 0.597534 0.218628
0.951477 0.619110 0.178925
0.998535 0.636261 0.117157
0.271576 0.452942 0.193146
0.290680 0.454895 0.197052
0.317657 0.445099 0.203918
0.361267 0.436768 0.219116
0.437256 0.474518 0.233337
0.575012 0.563232 0.243622
0.755890 0.655884 0.257843
0.929413 0.722534 0.291656
0.999023 0.745087 0.263733
0.332367 0.572540 0.248047
0.346558 0.565186 0.238739
0.375000 0.562744 0.255402
0.428436 0.561768 0.263733
0.483337 0.558838 0.280396
0.596069 0.641174 0.311279
0.737244 0.725006 0.341675
0.888245 0.796082 0.359802
1.000000 0.843628 0.389221
0.583344 0.812744 0.470581
0.587250 0.812744 0.470581
0.617645 0.812744 0.485291
0.657837 0.818634 0.504913
0.717651 0.817657 0.535309
0.770111 0.852448 0.558319
0.848053 0.894104 0.578430
0.927460 0.936279 0.590210
0.998047 0.968628 0.595093
0.000000 0.022064 0.251465
0.000000 0.020599 0.256866
0.180389 0.004425 0.266174
0.380402 0.000000 0.286774
0.547058 0.000488 0.299500
0.706848 0.000000 0.297058
0.845581 0.001465 0.277954
0.971069 0.001465 0.247559
1.000000 0.000000 0.208344
0.000977 0.096069 0.251465
0.000000 0.075989 0.255890
0.196075 0.078918 0.273041
0.393127 0.067657 0.284790
0.555878 0.000000 0.302460
0.706848 0.003418 0.302460
0.852448 0.000000 0.275482
0.972534 0.001465 0.236267
0.996582 0.007355 0.215698
0.000000 0.214203 0.249512
0.002441 0.212738 0.250488
0.215698 0.203918 0.270111
0.407349 0.222046 0.289215
0.564697 0.195099 0.303925
0.718628 0.137268 0.279419
0.851959 0.036285 0.240204
0.971069 0.111267 0.235291
0.999512 0.166168 0.227448
0.066162 0.310791 0.249023
0.155884 0.319122 0.260773
0.283325 0.334320 0.270111
0.434326 0.362732 0.297058
0.582855 0.349518 0.278931
0.720093 0.342163 0.268616
0.847046 0.339203 0.264221
0.968628 0.339691 0.251465
0.994598 0.353424 0.233337
0.207855 0.397064 0.263733
0.258331 0.399017 0.265198
0.344604 0.412262 0.280396
0.423035 0.407349 0.287750
0.544617 0.458832 0.307343
0.716675 0.491180 0.306854
0.848053 0.500000 0.285309
0.963226 0.498047 0.267639
0.997070 0.503418 0.249512
0.315186 0.460297 0.277466
0.337250 0.458344 0.280884
0.357361 0.456360 0.274017
0.411285 0.443146 0.279419
0.489227 0.465698 0.293152
0.659302 0.558319 0.326965
0.831848 0.608826 0.340698
0.948517 0.628418 0.313232
1.000000 0.641174 0.284302
0.308319 0.503418 0.256866
0.316162 0.502930 0.258331
0.347534 0.498047 0.256866
0.402466 0.482361 0.268616
0.448517 0.474030 0.278931
0.589203 0.571075 0.316162
0.770599 0.669617 0.352448
0.936768 0.730896 0.394104
0.998535 0.752930 0.365692
0.319122 0.598053 0.273529
0.338226 0.598053 0.274994
0.380402 0.591675 0.286774
0.431854 0.586761 0.294617
0.491669 0.571564 0.317657
0.591675 0.632843 0.345581
0.732849 0.723541 0.387268
0.883820 0.802460 0.414215
0.999512 0.846558 0.468140
0.550476 0.825012 0.472046
0.561279 0.829895 0.478424
0.597046 0.831360 0.490692
0.643127 0.827454 0.510773
0.706360 0.827942 0.539703
0.767639 0.846069 0.575500
0.846558 0.895111 0.595581
0.929901 0.935303 0.617157
1.000000 0.970093 0.623047
0.000000 0.033325 0.350983
0.003418 0.033325 0.358826
0.120575 0.015686 0.374512
0.366180 0.000488 0.400482
0.541168 0.000000 0.429413
0.693146 0.000000 0.442169
0.840210 0.000000 0.446075
0.971558 0.000488 0.436768
0.998047 0.001953 0.415680
0.000000 0.098541 0.365692
0.007355 0.079895 0.373047
0.137756 0.082367 0.377441
0.372559 0.090698 0.402954
0.544617 0.086761 0.416656
0.699524 0.001465 0.437256
0.843628 0.000000 0.447052
0.964691 0.001953 0.432831
0.999512 0.003937 0.412262
0.000000 0.232361 0.354889
0.003937 0.225983 0.367645
0.152954 0.197052 0.378418
0.385284 0.217651 0.407349
0.555878 0.239227 0.428436
0.707855 0.204407 0.441681
0.846069 0.170593 0.443146
0.971558 0.098053 0.421570
0.996094 0.005890 0.391174
0.001953 0.327942 0.349518
0.005402 0.332367 0.350983
0.206848 0.343140 0.365204
0.391174 0.342651 0.407349
0.578918 0.372559 0.440186
0.720581 0.354889 0.442657
0.852936 0.324005 0.431854
0.979401 0.285309 0.396088
0.998047 0.269623 0.366669
0.166656 0.417633 0.354889
0.216675 0.423035 0.360291
0.313721 0.437256 0.378418
0.441681 0.461273 0.403442
0.601959 0.500000 0.441162
0.731873 0.490204 0.435791
0.855896 0.485291 0.415680
0.969116 0.479889 0.408325
0.998047 0.484314 0.399994
0.260773 0.498535 0.368134
0.293640 0.500488 0.375488
0.358337 0.509796 0.373047
0.469116 0.522552 0.391174
0.557831 0.517639 0.409302
0.695587 0.587738 0.443146
0.841675 0.631866 0.460785
0.959808 0.637756 0.437744
0.995087 0.644623 0.422546
0.321564 0.551971 0.354889
0.343140 0.553925 0.359802
0.395111 0.561768 0.369598
0.450012 0.560303 0.363220
0.499023 0.541168 0.362732
0.603424 0.577942 0.391174
0.782349 0.686279 0.450012
0.939697 0.745575 0.497070
1.000000 0.759796 0.471558
0.350006 0.639709 0.363220
0.356384 0.642639 0.358337
0.369110 0.635284 0.352936
0.420105 0.630890 0.346069
0.500977 0.611267 0.357361
0.575989 0.613739 0.383820
0.732361 0.721558 0.442169
0.892151 0.805878 0.494110
0.997559 0.852936 0.547058
0.501953 0.849030 0.498047
0.508820 0.848541 0.502930
0.553925 0.848053 0.502930
0.613739 0.848541 0.529907
0.680389 0.845093 0.550995
0.765198 0.845581 0.595581
0.833344 0.889221 0.627441
0.922546 0.935791 0.645599
0.996063 0.974518 0.660797
0.000000 0.047058 0.465698
0.001953 0.046570 0.475983
0.000000 0.032349 0.484314
0.319611 0.001465 0.502441
0.529907 0.004913 0.533813
0.691162 0.001465 0.558838
0.827942 0.000000 0.571075
0.959808 0.001465 0.586273
0.996063 0.002441 0.581360
0.001953 0.100494 0.467651
0.001953 0.089203 0.471558
0.015686 0.092651 0.486755
0.325012 0.092651 0.503418
0.535797 0.115692 0.541656
0.690674 0.128418 0.558319
0.827942 0.037750 0.572540
0.961761 0.000488 0.585785
1.000000 0.003937 0.575012
0.002441 0.231873 0.467651
0.000000 0.218628 0.470093
0.018616 0.190186 0.479889
0.335297 0.208832 0.508331
0.540192 0.241180 0.535309
0.701965 0.262756 0.561768
0.836761 0.227936 0.578430
0.958832 0.206360 0.577454
0.997559 0.167145 0.576965
0.001465 0.340698 0.448029
0.000977 0.343140 0.461273
0.194122 0.348053 0.479889
0.334320 0.322540 0.503906
0.544617 0.362244 0.540192
0.711273 0.390686 0.567169
0.840698 0.370575 0.577942
0.964691 0.351959 0.579407
0.997070 0.323517 0.561279
0.000000 0.425476 0.449524
0.016663 0.431366 0.449005
0.199524 0.441681 0.463226
0.345581 0.456848 0.487732
0.542145 0.468140 0.534302
0.722046 0.512268 0.573029
0.845581 0.499512 0.576965
0.964691 0.478424 0.568146
0.994110 0.452454 0.539215
0.206360 0.510284 0.459320
0.250488 0.518127 0.463226
0.327454 0.531372 0.478912
0.438232 0.550476 0.495087
0.575012 0.584808 0.527466
0.731384 0.641174 0.579895
0.853424 0.626953 0.564209
0.965210 0.625488 0.553925
0.997559 0.623047 0.547058
0.215698 0.600983 0.468628
0.253937 0.602936 0.472534
0.325500 0.607361 0.475494
0.425995 0.618134 0.479401
0.566681 0.629425 0.501465
0.661774 0.625488 0.507355
0.804901 0.712738 0.563721
0.942169 0.759796 0.590210
1.000000 0.768127 0.571075
0.255890 0.684814 0.458344
0.285309 0.681366 0.457855
0.348053 0.682831 0.460297
0.438721 0.682343 0.463715
0.530884 0.683838 0.456360
0.607361 0.658325 0.457367
0.725983 0.713226 0.506866
0.895111 0.822052 0.587738
1.000000 0.868622 0.634796
0.467163 0.873535 0.575500
0.490692 0.868622 0.577454
0.528442 0.872070 0.574005
0.577454 0.870575 0.574524
0.630402 0.872559 0.573517
0.740204 0.865692 0.608826
0.832367 0.879425 0.660309
0.921570 0.940186 0.692169
1.000000 0.980377 0.716675
0.000000 0.062744 0.587250
0.000977 0.063232 0.596558
0.002930 0.049988 0.600983
0.274994 0.021088 0.623535
0.500977 0.031372 0.645111
0.688721 0.120575 0.676483
0.830383 0.139221 0.687256
0.943634 0.033813 0.690674
1.000000 0.001953 0.710785
0.001953 0.107361 0.594116
0.000000 0.105377 0.598053
0.002930 0.103912 0.609802
0.276947 0.104889 0.621094
0.501953 0.122070 0.640198
0.690674 0.183319 0.674011
0.827942 0.197540 0.694122
0.948029 0.150482 0.703430
1.000000 0.117157 0.709320
0.000000 0.233337 0.588226
0.002930 0.219116 0.592163
0.003937 0.189209 0.608826
0.274994 0.203430 0.617157
0.498047 0.229401 0.641174
0.689209 0.280396 0.674988
0.826477 0.300995 0.693146
0.947540 0.272064 0.704407
1.000000 0.254913 0.711761
0.000000 0.362732 0.575012
0.002441 0.357361 0.578430
0.012756 0.341675 0.584808
0.245575 0.306366 0.614227
0.493622 0.337250 0.644104
0.692657 0.387268 0.672058
0.831360 0.414703 0.689697
0.952454 0.392639 0.706848
0.997559 0.384308 0.712738
0.001953 0.445099 0.548035
0.001953 0.444122 0.553436
0.000000 0.450012 0.572540
0.296082 0.452942 0.596558
0.461761 0.432343 0.629425
0.685303 0.487244 0.672058
0.835297 0.534302 0.696075
0.945587 0.518127 0.711761
1.000000 0.509796 0.712738
0.002930 0.520111 0.554901
0.001465 0.526947 0.555389
0.031860 0.528931 0.565674
0.262268 0.535309 0.573517
0.433319 0.554901 0.598541
0.660797 0.582855 0.655396
0.837738 0.650482 0.701965
0.948029 0.642151 0.712738
0.994598 0.629913 0.698029
0.079407 0.613739 0.560791
0.142639 0.614716 0.560303
0.250977 0.621582 0.573517
0.374512 0.634308 0.580383
0.526459 0.657837 0.606873
0.683319 0.700012 0.645599
0.845093 0.761780 0.707855
0.949524 0.760773 0.696564
0.999023 0.760773 0.694122
0.000488 0.728424 0.597046
0.005890 0.725494 0.596069
0.157837 0.729889 0.596069
0.330872 0.736267 0.591675
0.487732 0.740692 0.596558
0.643127 0.749023 0.600494
0.749512 0.736755 0.607849
0.904419 0.834808 0.688721
0.996582 0.884308 0.730377
0.298035 0.901947 0.666656
0.326965 0.901947 0.668152
0.388245 0.901947 0.665680
0.480377 0.905396 0.672058
0.586273 0.904907 0.661774
0.699524 0.902466 0.669128
0.805878 0.900970 0.691162
0.910797 0.934326 0.749023
0.995087 0.983337 0.777466
0.000488 0.091187 0.739716
0.000488 0.091187 0.743622
0.000000 0.087250 0.747070
0.224518 0.076477 0.760284
0.479401 0.089203 0.774017
0.666656 0.147552 0.787750
0.827942 0.242645 0.811768
0.939697 0.253418 0.822052
1.000000 0.215210 0.826965
0.000488 0.129913 0.740692
0.000000 0.133331 0.740692
0.001465 0.128418 0.749023
0.223053 0.130890 0.755402
0.474030 0.147064 0.773041
0.666656 0.195587 0.794128
0.825012 0.281860 0.815674
0.943146 0.291168 0.819122
0.999512 0.259308 0.832855
0.001953 0.246582 0.737244
0.003937 0.232361 0.740692
0.007355 0.204895 0.750488
0.195099 0.212738 0.754425
0.464691 0.237732 0.774017
0.665192 0.278931 0.789703
0.829407 0.349518 0.814697
0.939697 0.370087 0.824524
0.997559 0.340210 0.832855
0.000000 0.373535 0.723541
0.000977 0.367157 0.730377
0.000000 0.345581 0.740204
0.057343 0.305878 0.752441
0.446075 0.330872 0.769623
0.655396 0.369598 0.790680
0.828918 0.440674 0.811768
0.940186 0.461761 0.826477
0.997070 0.441681 0.837250
0.001465 0.477936 0.705383
0.001465 0.476959 0.709320
0.005890 0.466187 0.722046
0.138245 0.449524 0.732361
0.371063 0.409790 0.765198
0.634796 0.459320 0.779419
0.821564 0.531860 0.808838
0.937256 0.569122 0.827454
1.000000 0.547546 0.835785
0.002930 0.563721 0.689209
0.001953 0.564209 0.687744
0.001465 0.559814 0.696564
0.002930 0.556366 0.710297
0.346558 0.554413 0.735779
0.574005 0.544128 0.768616
0.805878 0.621582 0.813232
0.938232 0.676483 0.830872
0.999512 0.661774 0.842651
0.003418 0.650970 0.694611
0.002930 0.647552 0.697052
0.001953 0.649994 0.696564
0.001465 0.650482 0.700500
0.254425 0.652466 0.715210
0.495087 0.668152 0.731384
0.759308 0.702454 0.790192
0.935791 0.786285 0.845093
0.999023 0.773041 0.849518
0.003418 0.747559 0.701965
0.003937 0.748535 0.701477
0.000000 0.754425 0.703918
0.174988 0.756378 0.703918
0.394104 0.763733 0.713226
0.587250 0.777954 0.731873
0.767639 0.814209 0.769623
0.938721 0.884308 0.849030
0.999512 0.877930 0.842163
0.000000 0.933319 0.813232
0.000000 0.937744 0.817169
0.000000 0.935303 0.822052
0.145599 0.940186 0.824005
0.404419 0.943146 0.813232
0.587738 0.944122 0.801483
0.751953 0.945587 0.794617
0.888245 0.945099 0.817169
0.999023 0.988220 0.867157
0.000000 0.168640 0.925476
0.000488 0.172546 0.936279
0.003937 0.168640 0.937256
0.187256 0.178925 0.939209
0.466675 0.201965 0.947052
0.662750 0.247070 0.950500
0.823517 0.310791 0.950012
0.950500 0.410309 0.957367
0.996063 0.415680 0.964691
0.003418 0.203430 0.936768
0.000488 0.206360 0.937744
0.003418 0.202942 0.930389
0.167633 0.211273 0.936768
0.468140 0.231873 0.941162
0.662750 0.274017 0.944611
0.823517 0.335785 0.958832
0.946564 0.430389 0.964691
0.999512 0.438721 0.965210
0.005890 0.298035 0.933319
0.003418 0.279907 0.933319
0.000000 0.264709 0.932343
0.074005 0.274994 0.941162
0.452942 0.294128 0.947052
0.659302 0.332855 0.950012
0.812744 0.396088 0.950012
0.944122 0.479401 0.957855
0.999023 0.484314 0.965698
0.000000 0.420105 0.931854
0.000000 0.409790 0.933319
0.002441 0.386261 0.934814
0.004913 0.356384 0.946075
0.410309 0.370087 0.943146
0.646088 0.404419 0.948029
0.814209 0.462738 0.953918
0.940186 0.546570 0.964691
1.000000 0.551483 0.971069
0.000000 0.541168 0.925476
0.000000 0.535309 0.927460
0.003937 0.516663 0.930389
0.002441 0.481384 0.941681
0.299988 0.439209 0.945099
0.611755 0.479889 0.953918
0.802948 0.542145 0.955872
0.935303 0.614716 0.967163
0.998047 0.631378 0.972534
0.002441 0.652954 0.925476
0.000488 0.647552 0.933319
0.000000 0.641174 0.930878
0.002930 0.620087 0.939697
0.242645 0.595581 0.945099
0.519623 0.556366 0.956360
0.771088 0.616669 0.962250
0.937744 0.688232 0.970581
1.000000 0.723541 0.971558
0.000000 0.763733 0.942169
0.000000 0.758820 0.939697
0.003906 0.751953 0.941162
0.003937 0.745087 0.944611
0.002930 0.726471 0.949005
0.413239 0.706360 0.960297
0.695099 0.687256 0.971558
0.907837 0.765686 0.969116
0.997070 0.810791 0.972534
0.000488 0.865204 0.957367
0.000488 0.865204 0.957367
0.004913 0.861267 0.964691
0.004425 0.860291 0.956360
0.003418 0.856873 0.967163
0.249512 0.850006 0.962738
0.531860 0.846069 0.978424
0.854401 0.837250 0.980896
1.000000 0.900482 0.988739
0.003937 0.968628 0.980377
0.000488 0.975494 0.976959
0.006866 0.971558 0.983337
0.004913 0.975494 0.981384
0.266663 0.976471 0.984314
0.474030 0.981873 0.996063
0.654907 0.978424 0.993134
0.818634 0.988220 1.000000
1.000000 1.000000 1.000000
