luts/film_fade.cube
#Created by: Adobe Photoshop Export Color Lookup Plugin
TITLE "film fade"
#LUT size
LUT_3D_SIZE 33
#data domain
DOMAIN_MIN 0.0 0.0 0.0
DOMAIN_MAX 1.0 1.0 1.0
#LUT data points
0.000000 0.003937 0.000000
0.007599 0.000000 0.003784
0.023041 0.000000 0.000000
0.038849 0.000366 0.000000
0.060791 0.000000 0.000000
0.083832 0.003296 0.000000
0.104401 0.003937 0.000000
0.147797 0.003937 0.004791
0.182343 0.000000 0.000977
0.226471 0.001099 0.000000
0.268372 0.000000 0.000000
0.314819 0.003937 0.001343
0.362244 0.002441 0.003937
0.410797 0.000000 0.000000
0.455872 0.000000 0.000000
0.496948 0.000000 0.000000
0.533325 0.000000 0.000000
0.577820 0.002075 0.003937
0.611267 0.000000 0.000000
0.651093 0.000000 0.002319
0.691162 0.000000 0.003937
0.728302 0.000000 0.001343
0.764465 0.000000 0.002686
0.796570 0.003937 0.000000
0.828430 0.002930 0.000000
0.867035 0.003937 0.001709
0.896332 0.003174 0.006378
0.924622 0.000610 0.000000
0.950989 0.003937 0.000000
0.985413 0.000000 0.004303
0.996063 0.000000 0.000000
0.996063 0.000000 0.000000
0.996063 0.003937 0.000000
0.000000 0.007721 0.000000
0.007599 0.007843 0.000000
0.019226 0.015320 0.000122
0.038483 0.019104 0.007355
0.056976 0.015076 0.006866
0.083832 0.015442 0.000732
0.110657 0.015564 0.000610
0.152191 0.009186 0.000732
0.186401 0.004669 0.002930
0.229767 0.001099 0.001099
0.274017 0.002686 0.002686
0.321320 0.000000 0.000000
0.367523 0.002563 0.002686
0.412262 0.000000 0.000244
0.451111 0.002197 0.000000
0.493011 0.001831 0.005768
0.531372 0.000000 0.001953
0.573639 0.000122 0.000000
0.610779 0.001709 0.000000
0.652710 0.001587 0.000122
0.688232 0.001465 0.001465
0.718384 0.000122 0.000366
0.764099 0.000000 0.000000
0.792755 0.000122 0.001221
0.828430 0.001099 0.003784
0.855377 0.000977 0.000854
0.893127 0.000000 0.003052
0.924011 0.000000 0.000000
0.948395 0.000000 0.000000
0.981995 0.000000 0.000122
0.996338 0.000244 0.000244
0.996063 0.000000 0.000000
0.999878 0.003784 0.003784
0.003662 0.023041 0.007355
0.011261 0.019470 0.007599
0.019104 0.022797 0.003937
0.031372 0.026703 0.007721
0.056610 0.030640 0.000977
0.084076 0.027588 0.000000
0.108093 0.030396 0.003662
0.155396 0.024506 0.000854
0.192902 0.013489 0.002930
0.233704 0.005035 0.000000
0.274994 0.003937 0.000000
0.325012 0.001099 0.001099
0.365204 0.000000 0.000000
0.411041 0.000000 0.000000
0.455627 0.000000 0.000000
0.498291 0.000244 0.000000
0.531616 0.001953 0.001953
0.575745 0.001831 0.000000
0.611023 0.000000 0.000000
0.651093 0.000000 0.002075
0.688232 0.001465 0.003937
0.720947 0.002319 0.000000
0.756622 0.000244 0.000000
0.797424 0.002563 0.002563
0.827454 0.002930 0.000000
0.855774 0.000854 0.000000
0.896088 0.002930 0.000000
0.927338 0.003296 0.000000
0.958344 0.000244 0.000488
0.985413 0.000000 0.003296
0.996063 0.003662 0.000000
0.996063 0.000000 0.000000
0.996063 0.000000 0.007355
0.007477 0.031006 0.015320
0.011139 0.030762 0.015076
0.015076 0.034668 0.018738
0.030640 0.038483 0.018860
0.045593 0.046082 0.008087
0.080017 0.042633 0.007599
0.110413 0.042755 0.004303
0.156494 0.042877 0.004791
0.198029 0.028320 0.000000
0.239349 0.024628 0.000732
0.280273 0.009186 0.000000
0.327820 0.003937 0.001343
0.372559 0.001099 0.002441
0.414703 0.000366 0.000366
0.457733 0.002197 0.004425
0.498779 0.000000 0.002930
0.537628 0.000000 0.002319
0.580994 0.000000 0.003540
0.618256 0.000000 0.001831
0.652710 0.001587 0.001953
0.691162 0.000000 0.001465
0.721802 0.003937 0.000732
0.759064 0.002686 0.002319
0.797668 0.002808 0.002808
0.828796 0.002563 0.000366
0.865082 0.002686 0.000000
0.893127 0.000000 0.000366
0.926971 0.002930 0.000366
0.951721 0.003540 0.000000
0.982239 0.003174 0.003540
0.996063 0.000000 0.000000
0.996063 0.000000 0.000000
1.000000 0.003937 0.003937
0.007843 0.041656 0.022552
0.015198 0.038727 0.023041
0.015442 0.042389 0.016418
0.027191 0.046448 0.023041
0.045593 0.057343 0.023041
0.075745 0.061768 0.018127
0.111511 0.065430 0.011780
0.159180 0.061157 0.004181
0.203918 0.065186 0.000488
0.244354 0.058075 0.000488
0.287018 0.049255 0.006134
0.332611 0.035034 0.000854
0.376465 0.019623 0.000000
0.417389 0.007233 0.000488
0.457123 0.001221 0.003418
0.500610 0.001831 0.008698
0.539215 0.001953 0.002930
0.577332 0.001587 0.003418
0.616425 0.000000 0.003418
0.653198 0.002075 0.001831
0.688721 0.000000 0.000000
0.720459 0.002563 0.000000
0.758331 0.003418 0.002197
0.797668 0.002808 0.005035
0.827454 0.001465 0.002441
0.855774 0.001343 0.000000
0.893127 0.000000 0.002686
0.925110 0.001099 0.000000
0.957855 0.000000 0.000000
0.985779 0.000366 0.003418
0.999023 0.017639 0.003174
1.000000 0.039215 0.003662
1.000000 0.063721 0.008331
0.016296 0.056366 0.034058
0.020233 0.053680 0.034668
0.017273 0.054657 0.023895
0.024139 0.061523 0.030518
0.038361 0.069000 0.020599
0.069366 0.077209 0.024139
0.109924 0.083710 0.015930
0.149506 0.084442 0.008331
0.201477 0.086029 0.006134
0.247192 0.088959 0.004547
0.296082 0.087128 0.006622
0.337006 0.076721 0.000000
0.376953 0.074402 0.004913
0.422424 0.064941 0.000977
0.460419 0.057220 0.005524
0.499390 0.046448 0.002441
0.539215 0.037628 0.000000
0.579651 0.027588 0.000000
0.617035 0.018127 0.002319
0.649994 0.011627 0.000610
0.689697 0.008453 0.001831
0.725006 0.006622 0.000000
0.760284 0.003937 0.000000
0.800995 0.008331 0.000610
0.832977 0.008209 0.001221
0.864594 0.018250 0.001221
0.896332 0.027832 0.000000
0.925232 0.040924 0.000000
0.958466 0.052338 0.000000
0.985779 0.069122 0.003662
0.999390 0.085785 0.003296
0.996063 0.102448 0.006500
1.000000 0.115204 0.006622
0.013245 0.069122 0.042389
0.022797 0.072296 0.044373
0.022797 0.072296 0.037750
0.030273 0.076233 0.038116
0.035034 0.087006 0.038483
0.061768 0.092651 0.036407
0.099030 0.106140 0.028931
0.149384 0.110046 0.016785
0.195343 0.114716 0.007599
0.243988 0.114716 0.006744
0.291412 0.118622 0.002441
0.337006 0.120453 0.003296
0.385040 0.119598 0.003937
0.422546 0.112488 0.000000
0.465210 0.112244 0.003174
0.505157 0.106506 0.004303
0.541168 0.101959 0.002686
0.581726 0.094971 0.000000
0.621826 0.094360 0.001709
0.656616 0.091431 0.000000
0.695343 0.091431 0.001465
0.726227 0.088104 0.000000
0.763000 0.087494 0.000000
0.797668 0.091797 0.003174
0.832367 0.094360 0.000000
0.863861 0.096924 0.002319
0.898041 0.103912 0.000000
0.926605 0.111023 0.000732
0.954651 0.117889 0.001465
0.982239 0.131744 0.000732
0.999512 0.140198 0.000000
0.996216 0.149506 0.000000
1.000000 0.161041 0.000000
0.012634 0.094604 0.049255
0.016418 0.092285 0.049988
0.023529 0.092407 0.047058
0.031860 0.091553 0.043152
0.039581 0.099640 0.048401
0.064819 0.107483 0.041412
0.088226 0.119110 0.030273
0.136902 0.133820 0.019623
0.189087 0.138733 0.026581
0.238220 0.146210 0.009186
0.288361 0.151337 0.000000
0.340088 0.153442 0.000000
0.381500 0.158325 0.003052
0.423401 0.158081 0.001709
0.465942 0.159546 0.000854
0.506622 0.156494 0.001709
0.548157 0.152832 0.000854
0.581360 0.149872 0.000000
0.624268 0.150848 0.001709
0.653564 0.147797 0.001709
0.696564 0.147919 0.004059
0.731750 0.143860 0.000000
0.766907 0.148163 0.000854
0.800476 0.150848 0.000000
0.827209 0.150848 0.002930
0.863098 0.153442 0.006989
0.895477 0.157959 0.000000
0.927704 0.163239 0.000000
0.955750 0.172180 0.000000
0.988495 0.176483 0.003052
0.999756 0.183075 0.000000
0.999878 0.191925 0.002930
0.996948 0.196564 0.000854
0.012756 0.115692 0.051971
0.022430 0.114838 0.054901
0.026215 0.111755 0.053436
0.034546 0.115082 0.050995
0.049011 0.118134 0.056854
0.067535 0.126831 0.047424
0.093872 0.134552 0.041901
0.129059 0.149261 0.035156
0.180389 0.161774 0.026459
0.229645 0.172546 0.015930
0.283569 0.180878 0.002686
0.336639 0.182953 0.000366
0.383331 0.185791 0.004913
0.425873 0.191559 0.002930
0.470581 0.193634 0.002197
0.513611 0.196075 0.000854
0.549011 0.198029 0.000977
0.583466 0.197174 0.000000
0.622559 0.196075 0.000000
0.663483 0.194122 0.005157
0.698029 0.191162 0.005402
0.731506 0.192169 0.000000
0.765686 0.195099 0.000000
0.799500 0.198029 0.001831
0.833344 0.200989 0.000977
0.866058 0.196930 0.000977
0.897308 0.199768 0.001465
0.926605 0.203552 0.002930
0.955872 0.212738 0.005402
0.986389 0.214691 0.005524
0.999756 0.218872 0.000977
0.997192 0.229523 0.000000
0.993134 0.239227 0.000000
0.012878 0.137878 0.058838
0.020477 0.140686 0.062622
0.030884 0.137878 0.055389
0.045227 0.133942 0.058441
0.053925 0.134430 0.062744
0.075989 0.144501 0.062134
0.098297 0.152466 0.058075
0.122925 0.164703 0.044250
0.167877 0.186646 0.039825
0.218018 0.192780 0.024628
0.272064 0.207123 0.006989
0.327820 0.212128 0.000000
0.378296 0.217651 0.000366
0.421814 0.223053 0.001099
0.463104 0.229156 0.000000
0.504913 0.233704 0.000000
0.548157 0.237610 0.004181
0.587372 0.237610 0.002075
0.627075 0.240448 0.001709
0.664581 0.237244 0.001587
0.698883 0.234802 0.001099
0.737488 0.235413 0.000000
0.770111 0.236511 0.001587
0.801605 0.238739 0.000000
0.834076 0.240692 0.001831
0.863098 0.242401 0.000000
0.897430 0.243378 0.000732
0.926849 0.249390 0.003418
0.954285 0.248169 0.000000
0.989349 0.253662 0.003937
0.999756 0.254913 0.001099
0.997314 0.268005 0.001221
0.997192 0.276825 0.003937
0.026215 0.164948 0.065430
0.032715 0.163849 0.068146
0.041656 0.157104 0.065430
0.058075 0.157959 0.063965
0.070343 0.157593 0.074768
0.083832 0.160431 0.066040
0.100250 0.172546 0.058319
0.127441 0.184937 0.050232
0.160034 0.203430 0.050232
0.204285 0.212128 0.042755
0.265930 0.229156 0.026215
0.315918 0.239349 0.004303
0.373291 0.247314 0.000000
0.420593 0.256256 0.002686
0.459808 0.263489 0.001709
0.506012 0.265076 0.002441
0.544617 0.271088 0.003937
0.583588 0.276215 0.002686
0.625244 0.276459 0.001709
0.669495 0.276215 0.002319
0.702698 0.276215 0.001465
0.736023 0.277466 0.000000
0.764465 0.277466 0.000000
0.798889 0.277344 0.000000
0.835541 0.277954 0.001953
0.867645 0.281372 0.001831
0.895844 0.282837 0.000000
0.930023 0.287994 0.000000
0.954895 0.291901 0.000000
0.988251 0.291901 0.002319
1.000000 0.294861 0.002686
1.000000 0.299866 0.002686
0.996063 0.307587 0.000000
0.040436 0.181610 0.071808
0.048157 0.181488 0.075623
0.054413 0.180511 0.070587
0.067535 0.180634 0.074524
0.086029 0.179413 0.082245
0.098053 0.177704 0.075745
0.113495 0.187256 0.073151
0.135529 0.197784 0.069244
0.168518 0.220093 0.061157
0.202820 0.227814 0.058319
0.249023 0.243256 0.044006
0.300476 0.263855 0.017029
0.358093 0.276947 0.002930
0.411163 0.280640 0.002319
0.459076 0.288727 0.005157
0.505646 0.292633 0.000000
0.544495 0.298523 0.001343
0.580383 0.303925 0.001343
0.624268 0.308716 0.001343
0.657349 0.313843 0.000000
0.694977 0.315918 0.000000
0.732239 0.317413 0.000000
0.769623 0.318756 0.001343
0.804169 0.318634 0.003937
0.832367 0.317780 0.000000
0.867035 0.319122 0.000000
0.901947 0.321198 0.001831
0.929901 0.324646 0.006622
0.958344 0.324005 0.001343
0.989349 0.328308 0.001343
0.998413 0.329407 0.000000
0.998657 0.337006 0.004913
0.998657 0.339691 0.001343
0.049500 0.207367 0.078430
0.062256 0.205872 0.080872
0.071320 0.203674 0.075012
0.085052 0.202454 0.078430
0.097534 0.199005 0.087738
0.109558 0.200989 0.083954
0.123535 0.207367 0.086517
0.146576 0.214966 0.078430
0.168152 0.232849 0.075500
0.203674 0.242645 0.073639
0.240448 0.253937 0.058075
0.289825 0.276581 0.039948
0.338715 0.291168 0.016663
0.394867 0.303802 0.004059
0.443878 0.317902 0.000244
0.497437 0.321442 0.001831
0.543152 0.327942 0.000488
0.581726 0.336151 0.001465
0.616180 0.339203 0.000000
0.658081 0.347046 0.002319
0.695099 0.350006 0.002930
0.734802 0.349518 0.001099
0.771332 0.353424 0.000000
0.805756 0.353424 0.000000
0.836273 0.356384 0.000000
0.864594 0.355011 0.000000
0.900238 0.357361 0.000000
0.930634 0.357727 0.000000
0.959320 0.361755 0.001953
0.989960 0.363098 0.004547
1.000000 0.365204 0.004425
1.000000 0.366791 0.001465
1.000000 0.369110 0.000000
0.071320 0.228180 0.084686
0.082733 0.230499 0.088470
0.088348 0.226593 0.088593
0.101227 0.222656 0.085175
0.113495 0.220337 0.092529
0.126587 0.221313 0.091187
0.139709 0.226593 0.090942
0.155762 0.225006 0.084686
0.172913 0.240326 0.087006
0.200745 0.252930 0.084198
0.238220 0.269226 0.073761
0.279785 0.285675 0.059326
0.323761 0.302338 0.044006
0.378662 0.322296 0.022797
0.430511 0.339966 0.003418
0.488098 0.346069 0.002075
0.537262 0.356018 0.000732
0.578918 0.363373 0.003418
0.618011 0.367889 0.003937
0.656616 0.371704 0.000732
0.695831 0.377930 0.000000
0.731262 0.380524 0.001587
0.765320 0.386627 0.001221
0.800476 0.390808 0.003937
0.834930 0.390442 0.002319
0.870087 0.392029 0.001587
0.900970 0.392029 0.003937
0.928680 0.392029 0.001587
0.956482 0.398041 0.000000
0.983826 0.399872 0.000000
0.996063 0.399872 0.000000
1.000000 0.403809 0.000000
0.998413 0.405396 0.000000
0.091187 0.245331 0.086273
0.100372 0.245331 0.090088
0.102448 0.243622 0.090210
0.112610 0.245453 0.093750
0.128174 0.242401 0.092896
0.142639 0.241425 0.097931
0.146576 0.240692 0.099518
0.162994 0.240570 0.097168
0.187012 0.255646 0.102692
0.206238 0.266052 0.097931
0.240936 0.282593 0.087982
0.273895 0.298889 0.079895
0.314209 0.317657 0.065430
0.359070 0.332367 0.056000
0.414948 0.353912 0.027466
0.467285 0.367645 0.002441
0.523041 0.375488 0.000000
0.577454 0.387024 0.003937
0.612976 0.392639 0.003937
0.652191 0.400848 0.004669
0.690674 0.404175 0.003418
0.731750 0.410553 0.000000
0.767883 0.412750 0.000000
0.803802 0.417755 0.000000
0.834320 0.420593 0.000000
0.866180 0.425354 0.000000
0.899506 0.428436 0.000000
0.931122 0.428314 0.003174
0.960541 0.430634 0.000000
0.983704 0.432709 0.001831
1.000000 0.434326 0.000000
1.000000 0.436401 0.002197
1.000000 0.440186 0.003937
0.106140 0.266907 0.094360
0.113983 0.266907 0.092285
0.119720 0.264832 0.094116
0.134308 0.263000 0.097656
0.139099 0.261139 0.100372
0.156494 0.259674 0.106140
0.164337 0.259064 0.107239
0.178680 0.254181 0.107971
0.188965 0.263855 0.106140
0.211639 0.277588 0.102203
0.242157 0.295837 0.098907
0.270966 0.307098 0.093140
0.306732 0.324890 0.084198
0.347534 0.338715 0.075623
0.393250 0.361145 0.052704
0.445709 0.380890 0.027466
0.501709 0.398285 0.002563
0.555634 0.406006 0.001831
0.609924 0.416168 0.003937
0.652191 0.423523 0.000000
0.693634 0.430023 0.004425
0.725739 0.435791 0.006500
0.765686 0.442780 0.002075
0.799500 0.444733 0.000000
0.832001 0.449646 0.001831
0.865814 0.453186 0.000000
0.898895 0.456848 0.001465
0.928558 0.462006 0.002075
0.958099 0.467163 0.000488
0.986877 0.467529 0.001709
0.998169 0.467163 0.001831
1.000000 0.469238 0.002075
1.000000 0.474762 0.002075
0.131378 0.284302 0.103912
0.129425 0.282349 0.101959
0.137268 0.280884 0.104156
0.146332 0.282349 0.104645
0.159302 0.279907 0.101471
0.167389 0.278442 0.107239
0.176483 0.274506 0.112244
0.189331 0.276459 0.115448
0.200989 0.274506 0.110779
0.219116 0.288239 0.107605
0.240936 0.304169 0.108582
0.272430 0.318268 0.102692
0.297058 0.332855 0.099030
0.339447 0.353668 0.090210
0.383820 0.369354 0.084320
0.430267 0.384796 0.062256
0.478424 0.405884 0.035309
0.536285 0.424988 0.012146
0.590210 0.434814 0.000244
0.648407 0.448639 0.000000
0.689697 0.456360 0.000000
0.724396 0.464691 0.001953
0.755890 0.468628 0.001221
0.795715 0.473663 0.003937
0.831360 0.480408 0.002930
0.858337 0.482361 0.001099
0.891174 0.486267 0.000000
0.925995 0.492157 0.000000
0.954895 0.496582 0.000000
0.983826 0.501953 0.000000
0.995819 0.505646 0.000000
0.999878 0.504059 0.001953
0.996063 0.509796 0.000000
0.146454 0.299622 0.105377
0.148651 0.297668 0.105530
0.148773 0.297791 0.105652
0.156616 0.297791 0.109558
0.164459 0.295715 0.105896
0.178314 0.293884 0.115814
0.189087 0.290436 0.119476
0.204041 0.288116 0.120331
0.211395 0.285309 0.119476
0.225983 0.296692 0.114716
0.245209 0.312256 0.115814
0.270477 0.324646 0.118744
0.296082 0.338593 0.108582
0.329773 0.357605 0.110901
0.372070 0.374878 0.102325
0.414825 0.392639 0.084198
0.462616 0.411774 0.073761
0.514832 0.436890 0.050720
0.573029 0.455750 0.017395
0.623169 0.465454 0.000488
0.681000 0.479401 0.008698
0.725494 0.487122 0.004791
0.759674 0.493622 0.000000
0.793518 0.498657 0.000000
0.829285 0.504425 0.000977
0.857239 0.509308 0.000977
0.893860 0.516052 0.000000
0.924011 0.522919 0.000000
0.952332 0.526825 0.000000
0.983215 0.528931 0.001465
1.000000 0.532837 0.002075
0.999878 0.538971 0.000000
0.996063 0.540680 0.000000
0.164215 0.314941 0.111511
0.164215 0.313232 0.113220
0.165924 0.311523 0.113220
0.175110 0.312866 0.115082
0.177216 0.313232 0.115448
0.190308 0.311035 0.118744
0.199524 0.309326 0.121063
0.211761 0.304535 0.123291
0.225006 0.302460 0.125000
0.237610 0.304291 0.128906
0.250244 0.320831 0.123779
0.267395 0.331482 0.121582
0.296570 0.347809 0.123047
0.327576 0.362610 0.119354
0.362244 0.382599 0.115448
0.397308 0.397919 0.102448
0.443878 0.417389 0.095581
0.489594 0.442413 0.081970
0.548035 0.460052 0.055389
0.605377 0.482727 0.023407
0.651947 0.494598 0.002930
0.712860 0.509796 0.007843
0.752686 0.518860 0.002686
0.789825 0.527313 0.000000
0.831848 0.532349 0.000977
0.855774 0.537628 0.000854
0.890198 0.543152 0.001709
0.925110 0.549744 0.002197
0.949768 0.552460 0.000000
0.979279 0.556244 0.002197
0.996063 0.563721 0.001709
0.998291 0.566162 0.001587
1.000000 0.575500 0.001709
0.179657 0.330261 0.127075
0.178070 0.330994 0.119965
0.181976 0.327087 0.119965
0.185547 0.330627 0.123535
0.186401 0.330017 0.122925
0.199402 0.327820 0.124756
0.211029 0.325500 0.131012
0.223297 0.323883 0.130890
0.236267 0.320465 0.132721
0.243622 0.316925 0.130890
0.259064 0.329651 0.139221
0.273407 0.341431 0.130768
0.296692 0.355530 0.133209
0.325378 0.374146 0.131866
0.354645 0.390320 0.121582
0.397064 0.406250 0.118988
0.432465 0.423157 0.110657
0.474762 0.444244 0.104889
0.528809 0.467285 0.087494
0.584442 0.494965 0.069122
0.641296 0.515686 0.045959
0.691162 0.523773 0.015198
0.741058 0.539337 0.005157
0.791656 0.554413 0.001587
0.823151 0.556610 0.000000
0.853546 0.563965 0.000000
0.885406 0.574249 0.000854
0.918884 0.578308 0.000000
0.946564 0.583466 0.000000
0.972412 0.586761 0.000000
0.996063 0.589966 0.000000
1.000000 0.596191 0.000000
0.995331 0.604034 0.000000
0.192657 0.350494 0.129425
0.192535 0.350372 0.129303
0.193634 0.346558 0.127930
0.200745 0.348053 0.131500
0.202454 0.344604 0.129913
0.213470 0.343506 0.132721
0.223297 0.340942 0.137024
0.231995 0.340210 0.140198
0.246582 0.334808 0.141663
0.255280 0.331238 0.138611
0.264465 0.335052 0.141418
0.283569 0.350250 0.140076
0.300995 0.362732 0.141174
0.327576 0.382111 0.139343
0.351715 0.398285 0.131378
0.387268 0.416168 0.132965
0.421570 0.433319 0.122559
0.465576 0.454651 0.126221
0.511261 0.472046 0.112488
0.567413 0.496460 0.100739
0.616669 0.521088 0.080872
0.672913 0.544250 0.061157
0.724518 0.554657 0.041901
0.774384 0.571320 0.022308
0.819122 0.584320 0.004425
0.851959 0.588715 0.000610
0.886261 0.596558 0.000000
0.913239 0.603424 0.000000
0.945587 0.613220 0.000000
0.975372 0.611633 0.000366
0.998779 0.622803 0.001465
1.000000 0.624023 0.003937
0.997559 0.630402 0.007843
0.200012 0.364838 0.133331
0.202698 0.363495 0.133331
0.209198 0.363495 0.135895
0.214081 0.363495 0.137268
0.222687 0.361389 0.131744
0.228912 0.360901 0.132721
0.232483 0.358215 0.134674
0.241425 0.359558 0.135040
0.255280 0.352692 0.138489
0.261505 0.351715 0.145599
0.270721 0.349152 0.149139
0.287506 0.357971 0.145111
0.306488 0.373779 0.147430
0.326965 0.386139 0.146454
0.352936 0.403198 0.142029
0.382843 0.423279 0.140564
0.416290 0.444489 0.139343
0.455872 0.459686 0.140442
0.503540 0.481018 0.135162
0.547058 0.504425 0.118744
0.599762 0.531128 0.111755
0.651093 0.553070 0.095459
0.703918 0.580017 0.085175
0.754059 0.590576 0.063354
0.801849 0.598541 0.054779
0.847809 0.616669 0.040924
0.880035 0.625732 0.010529
0.912872 0.626953 0.001465
0.945221 0.636261 0.006012
0.971069 0.640076 0.001343
0.990082 0.647064 0.001343
1.000000 0.651337 0.001221
1.000000 0.657715 0.001343
0.210297 0.384064 0.134552
0.217896 0.382843 0.134552
0.220581 0.380402 0.139465
0.229156 0.380157 0.138855
0.230896 0.378418 0.139709
0.237122 0.377441 0.139099
0.242889 0.376953 0.140442
0.253418 0.375000 0.142395
0.260284 0.374023 0.149994
0.270844 0.371063 0.149750
0.281128 0.366913 0.151703
0.295349 0.365814 0.155518
0.313721 0.382111 0.158325
0.330994 0.396942 0.155884
0.355133 0.415680 0.154419
0.383942 0.431610 0.153564
0.410034 0.448273 0.152954
0.451721 0.468628 0.156250
0.490692 0.488739 0.146576
0.538116 0.513123 0.140564
0.583832 0.535034 0.136505
0.632965 0.559448 0.130524
0.683319 0.584076 0.117645
0.738495 0.608459 0.100616
0.783813 0.618378 0.086761
0.830750 0.631622 0.098053
0.873535 0.649017 0.084564
0.907104 0.655884 0.057465
0.936279 0.665924 0.036285
0.969238 0.667145 0.011627
0.989471 0.679413 0.001953
0.997314 0.679535 0.000000
0.997314 0.687256 0.002441
0.230774 0.395477 0.145111
0.233582 0.398285 0.145233
0.233582 0.398285 0.145111
0.239594 0.401825 0.143738
0.246460 0.398041 0.151947
0.250854 0.396576 0.150726
0.256012 0.397186 0.154053
0.263245 0.393250 0.155151
0.275604 0.395355 0.156372
0.280640 0.390442 0.156860
0.292267 0.387634 0.160187
0.305634 0.385040 0.162994
0.317291 0.391418 0.160675
0.338715 0.406860 0.166901
0.359558 0.423401 0.168640
0.386902 0.441559 0.165802
0.418152 0.459930 0.164703
0.450256 0.479401 0.168640
0.487000 0.500977 0.164215
0.530029 0.526215 0.159546
0.571075 0.549133 0.156494
0.620087 0.572418 0.152344
0.671814 0.594116 0.145111
0.718140 0.617279 0.137268
0.769226 0.639343 0.129791
0.814697 0.651215 0.120331
0.862732 0.666046 0.122437
0.902954 0.675720 0.127075
0.941040 0.687256 0.123291
0.968994 0.694611 0.096558
0.990448 0.698517 0.068512
1.000000 0.705505 0.044739
1.000000 0.714203 0.026581
0.247070 0.419617 0.148041
0.249023 0.419617 0.149017
0.250977 0.422546 0.149017
0.258087 0.421570 0.153564
0.258331 0.419128 0.157349
0.260162 0.416290 0.157837
0.266663 0.417633 0.156372
0.279541 0.418518 0.158813
0.285309 0.413727 0.157837
0.296814 0.412628 0.161652
0.306366 0.409058 0.173035
0.316559 0.405884 0.174866
0.328430 0.403931 0.176483
0.347168 0.423279 0.177094
0.371063 0.436035 0.174500
0.397675 0.455261 0.178436
0.420593 0.472534 0.175476
0.456360 0.490814 0.179413
0.493134 0.513000 0.177460
0.526581 0.535187 0.174500
0.565674 0.560791 0.179413
0.612366 0.578918 0.177460
0.653931 0.604645 0.170349
0.707733 0.630646 0.166412
0.750977 0.648041 0.159790
0.800232 0.673279 0.149139
0.844360 0.682098 0.150482
0.883453 0.694733 0.152954
0.932831 0.712250 0.167145
0.959320 0.715088 0.162018
0.985779 0.725494 0.139954
1.000000 0.729401 0.129303
0.997070 0.743134 0.123535
0.263611 0.445709 0.161652
0.265320 0.445709 0.162506
0.265320 0.445709 0.162506
0.269745 0.440308 0.158081
0.274017 0.442657 0.169373
0.277344 0.440186 0.163361
0.284180 0.441040 0.166534
0.297546 0.441803 0.170349
0.307343 0.434937 0.171204
0.317413 0.438965 0.172302
0.323883 0.432098 0.174255
0.331482 0.430023 0.182953
0.342407 0.433075 0.185547
0.357727 0.438477 0.185059
0.381378 0.455750 0.186523
0.404907 0.469482 0.189941
0.430267 0.489105 0.194489
0.459198 0.509186 0.191803
0.493988 0.529297 0.197784
0.523285 0.554657 0.192413
0.558441 0.573761 0.189575
0.610168 0.594849 0.201721
0.649261 0.617157 0.191681
0.693512 0.640320 0.191681
0.741547 0.659424 0.190796
0.787750 0.677948 0.187744
0.836395 0.705017 0.180023
0.869965 0.717773 0.179535
0.907471 0.728912 0.183075
0.955261 0.740936 0.201233
0.981506 0.756134 0.196442
0.999268 0.759552 0.192657
1.000000 0.763367 0.189453
0.284546 0.472809 0.174744
0.285309 0.473541 0.175476
0.284546 0.472809 0.174744
0.288483 0.470337 0.175476
0.298279 0.473053 0.176727
0.303436 0.469604 0.177216
0.306610 0.466431 0.178680
0.315674 0.466431 0.180145
0.323517 0.466675 0.186279
0.332245 0.464966 0.183960
0.340210 0.461761 0.191162
0.347809 0.457855 0.195099
0.364960 0.458588 0.197784
0.375488 0.457855 0.198273
0.390930 0.474030 0.201233
0.412384 0.492889 0.199768
0.439453 0.510040 0.198273
0.466309 0.529297 0.207977
0.498535 0.550995 0.213959
0.537384 0.570099 0.218750
0.568878 0.594849 0.219849
0.608826 0.613495 0.216675
0.649017 0.635284 0.220581
0.688965 0.656494 0.219727
