luts/film_fade.cube
#Created by: Adobe Photoshop Export Color Lookup Plugin
TITLE "film fade"
#LUT size
LUT_3D_SIZE 5
#data domain
DOMAIN_MIN 0.0 0.0 0.0
DOMAIN_MAX 1.0 1.0 1.0
#LUT data points
0.000000 0.003937 0.000000
0.182343 0.000000 0.000977
0.533325 0.000000 0.000000
0.828430 0.002930 0.000000
0.996063 0.003937 0.000000
0.012756 0.115692 0.051971
0.180389 0.161774 0.026459
0.549011 0.198029 0.000977
0.833344 0.200989 0.000977
0.993134 0.239227 0.000000
0.131378 0.284302 0.103912
0.200989 0.274506 0.110779
0.478424 0.405884 0.035309
0.831360 0.480408 0.002930
0.996063 0.509796 0.000000
0.247070 0.419617 0.148041
0.285309 0.413727 0.157837
0.420593 0.472534 0.175476
0.750977 0.648041 0.159790
0.997070 0.743134 0.123535
0.592163 0.807831 0.450989
0.634308 0.804901 0.482361
0.717651 0.815674 0.525482
0.850983 0.896088 0.563721
1.000000 0.964691 0.568634
0.000000 0.008820 0.144104
0.188232 0.002930 0.158813
0.548035 0.000000 0.164703
0.837250 0.002930 0.114716
1.000000 0.002930 0.072540
0.000000 0.183319 0.160797
0.248047 0.209808 0.167633
0.560791 0.181366 0.147064
0.842163 0.175476 0.107849
0.999023 0.215698 0.048035
0.215698 0.354889 0.180389
0.282349 0.339203 0.183319
0.511780 0.431366 0.189209
0.840210 0.490204 0.133331
0.998047 0.508820 0.033325
0.271576 0.452942 0.193146
0.317657 0.445099 0.203918
0.437256 0.474518 0.233337
0.755890 0.655884 0.257843
0.999023 0.745087 0.263733
0.583344 0.812744 0.470581
0.617645 0.812744 0.485291
0.717651 0.817657 0.535309
0.848053 0.894104 0.578430
0.998047 0.968628 0.595093
0.000000 0.033325 0.350983
0.120575 0.015686 0.374512
0.541168 0.000000 0.429413
0.840210 0.000000 0.446075
0.998047 0.001953 0.415680
0.000000 0.232361 0.354889
0.152954 0.197052 0.378418
0.555878 0.239227 0.428436
0.846069 0.170593 0.443146
0.996094 0.005890 0.391174
0.166656 0.417633 0.354889
0.313721 0.437256 0.378418
0.601959 0.500000 0.441162
0.855896 0.485291 0.415680
0.998047 0.484314 0.399994
0.321564 0.551971 0.354889
0.395111 0.561768 0.369598
0.499023 0.541168 0.362732
0.782349 0.686279 0.450012
1.000000 0.759796 0.471558
0.501953 0.849030 0.498047
0.553925 0.848053 0.502930
0.680389 0.845093 0.550995
0.833344 0.889221 0.627441
0.996063 0.974518 0.660797
0.000000 0.062744 0.587250
0.002930 0.049988 0.600983
0.500977 0.031372 0.645111
0.830383 0.139221 0.687256
1.000000 0.001953 0.710785
0.000000 0.233337 0.588226
0.003937 0.189209 0.608826
0.498047 0.229401 0.641174
0.826477 0.300995 0.693146
1.000000 0.254913 0.711761
0.001953 0.445099 0.548035
0.000000 0.450012 0.572540
0.461761 0.432343 0.629425
0.835297 0.534302 0.696075
1.000000 0.509796 0.712738
0.079407 0.613739 0.560791
0.250977 0.621582 0.573517
0.526459 0.657837 0.606873
0.845093 0.761780 0.707855
0.999023 0.760773 0.694122
0.298035 0.901947 0.666656
0.388245 0.901947 0.665680
0.586273 0.904907 0.661774
0.805878 0.900970 0.691162
0.995087 0.983337 0.777466
0.000000 0.168640 0.925476
0.003937 0.168640 0.937256
0.466675 0.201965 0.947052
0.823517 0.310791 0.950012
0.996063 0.415680 0.964691
0.005890 0.298035 0.933319
0.000000 0.264709 0.932343
0.452942 0.294128 0.947052
0.812744 0.396088 0.950012
0.999023 0.484314 0.965698
0.000000 0.541168 0.925476
0.003937 0.516663 0.930389
0.299988 0.439209 0.945099
0.802948 0.542145 0.955872
0.998047 0.631378 0.972534
0.000000 0.763733 0.942169
0.003906 0.751953 0.941162
0.002930 0.726471 0.949005
0.695099 0.687256 0.971558
0.997070 0.810791 0.972534
0.003937 0.968628 0.980377
0.006866 0.971558 0.983337
0.266663 0.976471 0.984314
0.654907 0.978424 0.993134
1.000000 1.000000 1.000000
