luts/moody_film.cube
#Created by: Adobe Photoshop Export Color Lookup Plugin
TITLE "moody film"
#LUT size
LUT_3D_SIZE 5
#data domain
DOMAIN_MIN 0.0 0.0 0.0
DOMAIN_MAX 1.0 1.0 1.0
#LUT data points
0.109802 0.094116 0.082367
0.201965 0.108063 0.080170
0.437378 0.112762 0.079437
0.759796 0.158386 0.035065
1.000000 0.329407 0.000000
0.106323 0.175262 0.111206
0.202362 0.189667 0.100006
0.489990 0.221558 0.078156
0.791443 0.282104 0.011871
1.000000 0.419159 0.003723
0.000946 0.424408 0.187286
0.110596 0.430908 0.170593
0.485260 0.474487 0.125488
0.834137 0.551941 0.011444
0.998016 0.622528 0.058685
0.004486 0.759796 0.407196
0.003387 0.760559 0.377380
0.475769 0.763489 0.396027
0.796082 0.788239 0.352203
0.999237 0.831146 0.400238
0.584320 0.964691 0.745087
0.599243 0.967865 0.726685
0.709778 0.969574 0.747131
0.850464 0.971344 0.752930
0.988220 0.988220 0.752930
0.111542 0.105896 0.159790
0.215912 0.111206 0.164703
0.438019 0.115692 0.168121
0.749542 0.163727 0.171783
0.999023 0.332581 0.160767
0.119385 0.193878 0.191467
0.230377 0.202942 0.193329
0.480438 0.226471 0.195374
0.785828 0.282898 0.180878
0.997833 0.418396 0.174957
0.001160 0.443420 0.299469
0.183441 0.456818 0.294189
0.504730 0.487793 0.262299
0.836426 0.556610 0.244781
0.998260 0.625427 0.269989
0.001923 0.762024 0.497559
0.172729 0.764496 0.493195
0.501221 0.767883 0.487976
0.790283 0.792389 0.457092
0.999268 0.836823 0.499542
0.597046 0.963715 0.766663
0.632782 0.965118 0.763947
0.715057 0.968109 0.761810
0.852234 0.972748 0.778687
0.992157 0.988220 0.776459
0.002045 0.132416 0.407990
0.207123 0.131653 0.424194
0.530426 0.113800 0.439209
0.805359 0.168915 0.411835
0.996063 0.328400 0.434204
0.003723 0.242615 0.431152
0.203400 0.237000 0.453430
0.545074 0.251007 0.469879
0.797852 0.296143 0.437775
0.997009 0.420624 0.459808
0.001007 0.479431 0.512726
0.164734 0.491669 0.524536
0.540161 0.526428 0.544067
0.806580 0.550690 0.521606
0.998993 0.619598 0.522430
0.002380 0.779694 0.645142
0.190338 0.780609 0.641937
0.572113 0.784821 0.658539
0.796844 0.804657 0.639923
0.994568 0.844604 0.660339
0.441040 0.976471 0.784363
0.556335 0.972992 0.797791
0.733398 0.968689 0.816650
0.851166 0.974335 0.824341
0.991211 0.990265 0.824493
0.000214 0.188019 0.732361
0.181763 0.188202 0.738678
0.599670 0.166931 0.761261
0.883331 0.274323 0.755585
1.000000 0.527008 0.735291
0.000488 0.307037 0.740631
0.156403 0.300964 0.740906
0.591400 0.310852 0.764923
0.873260 0.405945 0.763489
0.998779 0.581909 0.739441
0.000244 0.541443 0.748505
0.081848 0.546356 0.746460
0.544861 0.562714 0.767395
0.844421 0.625000 0.777496
0.994171 0.683136 0.759064
0.001953 0.782806 0.793579
0.244781 0.785736 0.794861
0.560303 0.796814 0.800751
0.815704 0.821564 0.810791
0.985291 0.831390 0.793671
0.285736 0.985291 0.882599
0.406464 0.986420 0.880554
0.618164 0.983582 0.878204
0.857178 0.980377 0.896851
0.994537 0.989227 0.891846
0.352936 0.427460 0.968628
0.479614 0.435303 0.963287
0.717651 0.470673 0.967590
0.934113 0.553680 0.970581
1.000000 0.694122 0.952942
0.354156 0.512726 0.964691
0.478119 0.524506 0.967865
0.706787 0.553925 0.965149
0.921570 0.619659 0.970337
0.997620 0.723083 0.956085
0.139618 0.663757 0.960785
0.382782 0.672821 0.961792
0.663757 0.696014 0.963684
0.884338 0.731842 0.966583
0.998993 0.800079 0.958832
0.188019 0.852966 0.973328
0.336273 0.851715 0.973022
0.566803 0.847107 0.969330
0.828674 0.851959 0.973755
1.000000 0.891418 0.976257
0.403931 0.988220 0.996063
0.475922 0.991180 0.999786
0.635284 0.988220 0.996155
0.813202 0.992371 0.994873
1.000000 1.000000 1.000000
