luts/moody_film.cube
#Created by: Adobe Photoshop Export Color Lookup Plugin
TITLE "moody film"
#LUT size
LUT_3D_SIZE 9
#data domain
DOMAIN_MIN 0.0 0.0 0.0
DOMAIN_MAX 1.0 1.0 1.0
#LUT data points
0.109802 0.094116 0.082367
0.140228 0.097656 0.081909
0.201965 0.108063 0.080170
0.297516 0.108307 0.078949
0.437378 0.112762 0.079437
0.600586 0.119110 0.066681
0.759796 0.158386 0.035065
0.904846 0.229797 0.000946
1.000000 0.329407 0.000000
0.109863 0.121979 0.087708
0.141113 0.125000 0.090149
0.211090 0.132690 0.089050
0.312714 0.139008 0.088531
0.452240 0.144440 0.080109
0.613983 0.156708 0.067932
0.771942 0.191986 0.036072
0.911285 0.264832 0.003784
1.000000 0.356812 0.004364
0.106323 0.175262 0.111206
0.129913 0.182861 0.106689
0.202362 0.189667 0.100006
0.335785 0.210114 0.091797
0.489990 0.221558 0.078156
0.643463 0.243500 0.058197
0.791443 0.282104 0.011871
0.922333 0.342621 0.002136
1.000000 0.419159 0.003723
0.052551 0.279327 0.140686
0.088226 0.280396 0.128418
0.184906 0.284332 0.132050
0.323975 0.306793 0.105713
0.510345 0.347992 0.080353
0.684296 0.377625 0.031219
0.824615 0.408936 0.002930
0.938232 0.453461 0.003815
0.997009 0.510254 0.001892
0.000946 0.424408 0.187286
0.002441 0.424988 0.170532
0.110596 0.430908 0.170593
0.293945 0.447144 0.161438
0.485260 0.474487 0.125488
0.684021 0.521515 0.053345
0.834137 0.551941 0.011444
0.953217 0.586914 0.007446
0.998016 0.622528 0.058685
0.000519 0.597626 0.265656
0.003052 0.600098 0.245361
0.002716 0.604126 0.245178
0.259033 0.608459 0.251862
0.466675 0.626709 0.228516
0.653473 0.650024 0.186676
0.824921 0.683838 0.152222
0.938416 0.707672 0.175446
0.998535 0.738831 0.233337
0.004486 0.759796 0.407196
0.002808 0.760223 0.390869
0.003387 0.760559 0.377380
0.275208 0.759308 0.386444
0.475769 0.763489 0.396027
0.639465 0.777466 0.378693
0.796082 0.788239 0.352203
0.925659 0.811523 0.347412
0.999237 0.831146 0.400238
0.242523 0.876007 0.575897
0.253845 0.878998 0.573914
0.299927 0.879364 0.560913
0.433502 0.880493 0.564270
0.564941 0.876648 0.577301
0.678528 0.882782 0.582062
0.785492 0.888550 0.569733
0.901672 0.898590 0.549408
0.999451 0.908783 0.556274
0.584320 0.964691 0.745087
0.589172 0.961731 0.727386
0.599243 0.967865 0.726685
0.644104 0.963745 0.736389
0.709778 0.969574 0.747131
0.784851 0.970093 0.756439
0.850464 0.971344 0.752930
0.915192 0.982910 0.757294
0.988220 0.988220 0.752930
0.116211 0.098511 0.112305
0.144104 0.104889 0.108826
0.205322 0.111359 0.116058
0.298889 0.121552 0.113647
0.429688 0.122406 0.111725
0.598328 0.129700 0.107788
0.755798 0.158325 0.089569
0.902130 0.234039 0.057312
0.999542 0.333344 0.019348
0.120636 0.128387 0.116669
0.145050 0.129364 0.117584
0.211273 0.139984 0.121918
0.313263 0.142487 0.120209
0.448517 0.152344 0.112122
0.611145 0.163940 0.107849
0.769836 0.197388 0.089539
0.913208 0.267242 0.057434
0.996124 0.357697 0.016815
0.121063 0.187531 0.141785
0.143219 0.189087 0.128418
0.215454 0.195190 0.131500
0.338501 0.212769 0.120270
0.490509 0.224548 0.122742
0.643280 0.245514 0.105713
0.790741 0.282257 0.083527
0.922058 0.340759 0.054230
0.999573 0.421112 0.021820
0.075897 0.285248 0.166870
0.122101 0.288727 0.171417
0.199677 0.294861 0.163147
0.331268 0.314941 0.146942
0.513885 0.348846 0.125275
0.688019 0.378723 0.101532
0.819916 0.407288 0.084045
0.938629 0.453278 0.060425
0.998108 0.513214 0.070557
0.002563 0.428772 0.228638
0.002228 0.436035 0.217133
0.127625 0.437836 0.203979
0.306824 0.452484 0.200897
0.490906 0.477936 0.168671
0.689850 0.522034 0.130951
0.835510 0.553436 0.113739
0.949097 0.585999 0.115845
0.998596 0.624451 0.149536
0.000458 0.602997 0.310699
0.002075 0.605865 0.304047
0.003082 0.608582 0.277985
0.274353 0.613556 0.288147
0.473145 0.628052 0.271149
0.658051 0.650513 0.237305
0.828735 0.683655 0.212524
0.939911 0.707031 0.232697
0.999725 0.738708 0.279022
0.002380 0.755615 0.444824
0.001312 0.760834 0.434265
0.006165 0.762115 0.410980
0.292694 0.763947 0.414978
0.483398 0.765686 0.428101
0.642334 0.779785 0.412506
0.792999 0.792450 0.385071
0.925262 0.812622 0.378784
1.000000 0.833313 0.436859
0.289215 0.875977 0.599213
0.304474 0.878723 0.593353
0.328003 0.879791 0.576965
0.445007 0.879791 0.580444
0.571686 0.878326 0.593384
0.682068 0.883087 0.599091
0.788116 0.890076 0.583008
0.895386 0.900238 0.567871
0.993439 0.914124 0.575287
0.599121 0.964233 0.749512
0.599945 0.965637 0.749451
0.613495 0.965118 0.738495
0.650391 0.969635 0.741913
0.713287 0.967926 0.750610
0.781830 0.969086 0.762238
0.850037 0.970306 0.765106
0.918732 0.976990 0.762573
0.995148 0.984772 0.767639
0.111542 0.105896 0.159790
0.146759 0.105835 0.166077
0.215912 0.111206 0.164703
0.316681 0.118469 0.163086
0.438019 0.115692 0.168121
0.592163 0.130127 0.167664
0.749542 0.163727 0.171783
0.895905 0.231659 0.164764
0.999023 0.332581 0.160767
0.119995 0.137512 0.174957
0.155487 0.137421 0.175171
0.226135 0.145050 0.181152
0.325073 0.147552 0.174988
0.447632 0.155304 0.175598
0.606415 0.167755 0.178528
0.765228 0.200775 0.175385
0.905396 0.266174 0.169556
0.997772 0.355042 0.166931
0.119385 0.193878 0.191467
0.145905 0.200500 0.191437
0.230377 0.202942 0.193329
0.340668 0.212830 0.201874
0.480438 0.226471 0.195374
0.636414 0.245941 0.189728
0.785828 0.282898 0.180878
0.918488 0.341034 0.176422
0.997833 0.418396 0.174957
0.059479 0.299652 0.232452
0.127228 0.302643 0.235901
0.223297 0.313507 0.232513
0.345734 0.326538 0.218201
0.525970 0.354370 0.215729
0.683167 0.376007 0.204376
0.813568 0.407288 0.203125
0.930542 0.450806 0.195862
0.997803 0.510101 0.205414
0.001160 0.443420 0.299469
0.009094 0.447388 0.294556
0.183441 0.456818 0.294189
0.327606 0.463440 0.283264
0.504730 0.487793 0.262299
0.694153 0.527802 0.246490
0.836426 0.556610 0.244781
0.943726 0.586639 0.250458
0.998260 0.625427 0.269989
0.001526 0.610199 0.381714
0.002472 0.614319 0.383850
0.089447 0.619781 0.373657
0.304413 0.621826 0.364014
0.482147 0.635010 0.359467
0.663208 0.657593 0.334625
0.826141 0.687286 0.320679
0.938965 0.710510 0.345703
0.999420 0.741455 0.378571
0.001923 0.762024 0.497559
0.008301 0.763092 0.500549
0.172729 0.764496 0.493195
0.325500 0.767792 0.477570
0.501221 0.767883 0.487976
0.651306 0.781189 0.478912
0.790283 0.792389 0.457092
0.918457 0.816071 0.448975
0.999268 0.836823 0.499542
0.305695 0.879089 0.624329
0.355255 0.877441 0.631836
0.407959 0.878418 0.629211
0.464874 0.882324 0.615570
0.582672 0.879852 0.625854
0.688232 0.882935 0.630493
0.791656 0.889099 0.620117
0.893311 0.898834 0.607117
0.989410 0.913849 0.610138
0.597046 0.963715 0.766663
0.613281 0.964386 0.764526
0.632782 0.965118 0.763947
0.654938 0.966644 0.759064
0.715057 0.968109 0.761810
0.784454 0.967712 0.775635
0.852234 0.972748 0.778687
0.920715 0.977600 0.777954
0.992157 0.988220 0.776459
0.090149 0.117645 0.254822
0.132050 0.119080 0.267151
0.229156 0.116364 0.280823
0.351959 0.120087 0.275940
0.492889 0.126312 0.269348
0.625244 0.112427 0.257874
0.747559 0.134979 0.262970
0.888123 0.218018 0.276215
0.997528 0.327942 0.293121
0.098969 0.153564 0.278076
0.135986 0.152069 0.276093
0.232391 0.153320 0.292023
0.356903 0.151733 0.284241
0.495941 0.164490 0.283112
0.627228 0.150909 0.269806
0.754669 0.191284 0.274017
0.898132 0.257690 0.287354
0.998260 0.352142 0.295990
0.087830 0.216278 0.290161
0.134491 0.217590 0.294220
0.227386 0.219818 0.306671
0.363770 0.224884 0.307129
0.499481 0.237762 0.300446
0.626160 0.245239 0.296783
0.771454 0.280518 0.301422
0.903625 0.337189 0.303558
0.998260 0.415710 0.311707
0.020294 0.315735 0.332764
0.099487 0.316895 0.334808
0.220581 0.329071 0.339722
0.368561 0.345062 0.346924
0.519684 0.355042 0.345734
0.666077 0.371674 0.339722
0.802307 0.402740 0.337494
0.923157 0.450623 0.333405
0.999054 0.507843 0.342194
0.000244 0.467529 0.403809
0.004059 0.469421 0.403503
0.190674 0.479034 0.404755
0.367462 0.488403 0.406128
0.523407 0.505829 0.396332
0.697693 0.537201 0.389557
0.827515 0.557800 0.391388
0.930634 0.583649 0.393829
1.000000 0.622345 0.406982
0.003326 0.627777 0.479706
0.002625 0.629425 0.480164
0.149597 0.631836 0.481964
0.363861 0.640198 0.482544
0.507629 0.645630 0.476105
0.670105 0.664856 0.459930
0.820740 0.693756 0.454895
0.932831 0.718475 0.469482
0.999786 0.743927 0.491852
0.001801 0.768677 0.563202
0.003937 0.772614 0.565857
0.239258 0.771637 0.571411
0.414001 0.773315 0.573181
0.526733 0.778046 0.567139
0.661285 0.784943 0.566467
0.796417 0.797913 0.549469
0.918518 0.819489 0.546997
0.997955 0.841034 0.578064
0.260620 0.884644 0.662903
0.319244 0.882385 0.662720
0.427521 0.879211 0.671326
0.522675 0.882111 0.674652
0.598633 0.881409 0.668793
0.699707 0.884186 0.676239
0.795990 0.891510 0.667816
0.894012 0.900146 0.658264
0.987000 0.916290 0.661926
0.553986 0.966736 0.773621
0.574432 0.968323 0.779816
0.630127 0.965485 0.788055
0.681000 0.966736 0.786224
0.717438 0.970886 0.782745
0.786438 0.970673 0.789337
0.848602 0.972321 0.800507
0.916473 0.978882 0.799164
0.993652 0.989166 0.797577
0.002045 0.132416 0.407990
0.067780 0.133545 0.410278
0.207123 0.131653 0.424194
0.375885 0.113617 0.447968
0.530426 0.113800 0.439209
0.690521 0.150360 0.432007
0.805359 0.168915 0.411835
0.907776 0.207794 0.399933
0.996063 0.328400 0.434204
0.002319 0.165771 0.418152
0.073273 0.166809 0.423126
0.213013 0.165314 0.436432
0.382690 0.154358 0.457123
0.532776 0.161224 0.448059
0.689484 0.196838 0.441528
0.803131 0.212006 0.422882
0.906067 0.243469 0.409729
0.994110 0.358917 0.444092
0.003723 0.242615 0.431152
0.068939 0.241119 0.443359
0.203400 0.237000 0.453430
0.379303 0.238556 0.472290
0.545074 0.251007 0.469879
0.689667 0.287872 0.456726
0.797852 0.296143 0.437775
0.897980 0.328033 0.429657
0.997009 0.420624 0.459808
0.005707 0.341217 0.467010
0.010986 0.344849 0.470428
0.191437 0.353271 0.475861
0.361206 0.362213 0.492584
0.549072 0.381378 0.501862
0.677277 0.399384 0.485535
0.786499 0.404022 0.464691
0.896942 0.447540 0.471436
0.999237 0.500214 0.478455
0.001007 0.479431 0.512726
0.002014 0.482361 0.511322
0.164734 0.491669 0.524536
0.364410 0.502655 0.530304
0.540161 0.526428 0.544067
0.680176 0.535767 0.530518
0.806580 0.550690 0.521606
0.914093 0.576874 0.520752
0.998993 0.619598 0.522430
0.003326 0.644623 0.582489
0.001892 0.645355 0.583069
0.121979 0.650635 0.580688
0.374268 0.656464 0.589752
0.543579 0.664795 0.593964
0.681732 0.679199 0.588806
0.821686 0.701996 0.581085
0.924774 0.721497 0.584290
0.998291 0.742950 0.592773
0.002380 0.779694 0.645142
0.005371 0.781586 0.643982
0.190338 0.780609 0.641937
0.409882 0.782013 0.646454
0.572113 0.784821 0.658539
0.674652 0.790558 0.651550
0.796844 0.804657 0.639923
0.912109 0.823486 0.640961
0.994568 0.844604 0.660339
0.037415 0.886627 0.704041
0.176666 0.889313 0.703888
0.352173 0.888641 0.711761
0.506592 0.885925 0.718262
0.631958 0.886536 0.731384
0.709564 0.888153 0.723053
0.802734 0.892426 0.726990
0.896332 0.900208 0.715485
0.988739 0.918304 0.719086
0.441040 0.976471 0.784363
0.483826 0.970184 0.789032
0.556335 0.972992 0.797791
0.653534 0.972748 0.811127
0.733398 0.968689 0.816650
0.784393 0.973999 0.815826
0.851166 0.974335 0.824341
0.918213 0.981110 0.821136
0.991211 0.990265 0.824493
0.000000 0.157410 0.578400
0.002655 0.154175 0.579285
0.174835 0.150421 0.590515
0.375793 0.137268 0.604462
0.578156 0.095856 0.626465
0.722992 0.141632 0.614136
0.843353 0.246002 0.597412
0.936981 0.326996 0.586823
0.997009 0.397064 0.587219
0.000824 0.189178 0.581940
0.001984 0.188873 0.587311
0.178192 0.186066 0.593628
0.378754 0.178894 0.609467
0.582672 0.156372 0.631622
0.721497 0.197571 0.616913
0.844849 0.291931 0.599640
0.935181 0.357269 0.590942
1.000000 0.418121 0.590149
0.000763 0.270355 0.595886
0.001923 0.267670 0.595581
0.161377 0.261536 0.605133
0.373230 0.263184 0.622009
0.579529 0.262695 0.643982
0.724457 0.299347 0.631989
0.838562 0.378418 0.615143
0.924805 0.419922 0.601349
0.999054 0.465912 0.599060
0.001038 0.378967 0.601685
0.000122 0.381592 0.607086
0.145935 0.383514 0.615143
0.356384 0.383331 0.632416
0.563721 0.397400 0.651733
0.722076 0.429535 0.648834
0.827911 0.490082 0.636169
0.913666 0.501343 0.618011
0.993713 0.527252 0.609406
0.001099 0.508301 0.639404
0.006927 0.509949 0.636932
0.115051 0.514954 0.639008
0.346588 0.527222 0.646912
0.539185 0.541199 0.660370
0.708282 0.565979 0.669067
0.810333 0.589050 0.651825
0.893341 0.580414 0.631256
0.985901 0.618774 0.634430
0.003784 0.645630 0.672028
0.002441 0.647614 0.675934
0.142914 0.653503 0.675201
0.374298 0.660004 0.679504
0.546265 0.675720 0.683746
0.695068 0.695129 0.695099
0.803833 0.698181 0.681396
0.904053 0.706696 0.673096
0.994598 0.734741 0.674042
0.000549 0.787781 0.720917
0.000916 0.788605 0.730652
0.205658 0.789703 0.725983
0.402283 0.796112 0.727020
0.563446 0.798523 0.729340
0.699921 0.802979 0.730469
0.803802 0.811951 0.728333
0.910828 0.830444 0.727570
0.997253 0.846436 0.734772
0.046448 0.892212 0.771240
0.174957 0.895508 0.768341
0.319305 0.894806 0.771240
0.458679 0.893585 0.771545
0.600525 0.893250 0.774567
0.728760 0.891663 0.784485
0.808075 0.896118 0.781158
0.894073 0.907501 0.776215
0.990570 0.920837 0.775970
0.253510 0.982849 0.815369
0.304169 0.983551 0.816315
0.393463 0.983032 0.819061
0.537750 0.980072 0.822723
0.692627 0.974792 0.842041
0.796051 0.975525 0.855377
0.848389 0.975922 0.856079
0.919647 0.983551 0.854523
0.994751 0.989258 0.858398
0.000214 0.188019 0.732361
0.001556 0.192383 0.730225
0.181763 0.188202 0.738678
0.399414 0.181763 0.744019
0.599670 0.166931 0.761261
0.777496 0.173462 0.775452
0.883331 0.274323 0.755585
0.951782 0.409760 0.725708
1.000000 0.527008 0.735291
0.002594 0.225830 0.732758
0.000549 0.226257 0.734924
0.179260 0.226166 0.737885
0.402924 0.219727 0.748230
0.596802 0.214081 0.759918
0.774475 0.229889 0.773651
0.881500 0.316986 0.757629
0.950806 0.438965 0.730804
0.999878 0.540833 0.735321
0.000488 0.307037 0.740631
0.002197 0.300354 0.738556
0.156403 0.300964 0.740906
0.393768 0.303680 0.754181
0.591400 0.310852 0.764923
0.768860 0.333191 0.778076
0.873260 0.405945 0.763489
0.939972 0.504700 0.738037
0.998779 0.581909 0.739441
0.002075 0.419769 0.737976
0.002136 0.419373 0.739166
0.140717 0.422424 0.751953
0.372986 0.418915 0.755188
0.573273 0.434448 0.767639
0.751953 0.462158 0.781342
0.862244 0.515625 0.769348
0.929047 0.589508 0.751129
0.995667 0.633270 0.748718
0.000244 0.541443 0.748505
0.000763 0.546478 0.750916
0.081848 0.546356 0.746460
0.347504 0.549927 0.756012
0.544861 0.562714 0.767395
0.722107 0.590698 0.781097
0.844421 0.625000 0.777496
0.917267 0.674927 0.766235
0.994171 0.683136 0.759064
0.003937 0.668640 0.768372
0.005554 0.668274 0.769043
0.120575 0.672821 0.769226
0.360229 0.675873 0.770782
0.528442 0.684448 0.773315
0.690216 0.703552 0.784210
0.823883 0.730133 0.790497
0.902496 0.741730 0.773499
0.979919 0.738159 0.760498
0.001953 0.782806 0.793579
0.023956 0.784973 0.790314
0.244781 0.785736 0.794861
0.411346 0.791077 0.795258
0.560303 0.796814 0.800751
0.695892 0.807709 0.802155
0.815704 0.821564 0.810791
0.898651 0.821045 0.800049
0.985291 0.831390 0.793671
0.125610 0.899628 0.830383
0.208496 0.901154 0.833740
0.334778 0.897980 0.836121
0.467499 0.897461 0.835602
0.597839 0.900635 0.837006
0.716492 0.900391 0.837494
0.820038 0.900970 0.842651
0.904236 0.907776 0.844299
0.989838 0.922333 0.842346
0.285736 0.985291 0.882599
0.325104 0.984924 0.883911
0.406464 0.986420 0.880554
0.509399 0.985413 0.880219
0.618164 0.983582 0.878204
0.732208 0.979248 0.877167
0.857178 0.980377 0.896851
0.921204 0.982239 0.894135
0.994537 0.989227 0.891846
0.003448 0.259888 0.856781
0.047516 0.261200 0.854553
0.283478 0.263275 0.860565
0.466400 0.263123 0.860474
0.632629 0.272644 0.865784
0.790833 0.303223 0.876984
0.920685 0.371857 0.878754
0.988342 0.481445 0.863678
0.996460 0.591034 0.830292
0.000641 0.294678 0.857269
0.044067 0.292664 0.850311
0.282837 0.296356 0.858398
0.464142 0.301025 0.865021
0.632111 0.313477 0.866425
0.790680 0.344269 0.876312
0.919525 0.407806 0.881500
0.984497 0.504425 0.862152
0.999573 0.606293 0.836517
0.000366 0.366150 0.854187
0.017944 0.365601 0.861511
0.273132 0.369354 0.857574
0.454193 0.377045 0.864563
0.626129 0.394135 0.869202
0.778381 0.424988 0.873138
0.907593 0.478638 0.881317
0.973724 0.554230 0.861603
0.999054 0.643188 0.838959
0.002472 0.478760 0.856812
0.015137 0.476868 0.855255
0.260986 0.481903 0.863312
0.436462 0.481567 0.860504
0.611755 0.499451 0.865570
0.763428 0.528259 0.874817
0.892700 0.570618 0.880157
0.960815 0.626221 0.865540
0.997803 0.693634 0.844269
0.001465 0.589172 0.852142
0.000458 0.588654 0.850891
0.152588 0.588135 0.852173
0.400238 0.593842 0.860870
0.574249 0.604919 0.865356
0.738434 0.628632 0.872009
0.872681 0.662659 0.882660
0.947876 0.700775 0.872314
0.992218 0.752197 0.854187
0.002258 0.703766 0.862701
0.005188 0.702820 0.860016
0.150238 0.701538 0.860382
0.362152 0.702087 0.858765
0.530609 0.705048 0.862305
0.699738 0.721008 0.868500
0.842896 0.748474 0.885925
0.932098 0.776611 0.881531
0.985382 0.814270 0.870544
0.000946 0.807159 0.875183
0.036896 0.805695 0.873901
0.246338 0.810516 0.873505
0.405792 0.808990 0.872162
0.545563 0.811462 0.873749
0.675476 0.813477 0.872833
0.806488 0.826996 0.879822
0.918274 0.852295 0.890961
0.982269 0.861298 0.878998
0.238708 0.892242 0.886169
0.283661 0.893097 0.897461
0.371704 0.894226 0.893494
0.479309 0.897125 0.893372
0.597412 0.898804 0.894165
0.710663 0.898438 0.897614
0.810669 0.906952 0.896576
0.910889 0.918640 0.906921
0.989197 0.915649 0.899078
0.319824 0.991211 0.938171
0.350769 0.987671 0.937317
0.420227 0.988129 0.934814
0.515656 0.988129 0.938751
0.618408 0.987793 0.939636
0.722198 0.990112 0.939270
0.821014 0.990112 0.939209
0.919647 0.988678 0.943024
0.992645 0.996063 0.942139
0.352936 0.427460 0.968628
0.395111 0.427399 0.957794
0.479614 0.435303 0.963287
0.598541 0.448975 0.969055
0.717651 0.470673 0.967590
0.836304 0.507874 0.969147
0.934113 0.553680 0.970581
0.997009 0.621063 0.968201
1.000000 0.694122 0.952942
0.352600 0.456512 0.969757
0.392059 0.448853 0.965149
0.483124 0.460022 0.964264
0.594086 0.478363 0.967987
0.713165 0.499512 0.967163
0.832184 0.531647 0.970581
0.934387 0.575745 0.973511
0.999573 0.636627 0.972351
0.999573 0.701996 0.953064
0.354156 0.512726 0.964691
0.395111 0.515228 0.964600
0.478119 0.524506 0.967865
0.590668 0.533081 0.963989
0.706787 0.553925 0.965149
0.824280 0.580658 0.967529
0.921570 0.619659 0.970337
0.995880 0.672455 0.970551
0.997620 0.723083 0.956085
0.348541 0.598572 0.960785
0.395660 0.604797 0.961090
0.465454 0.599579 0.964203
0.575012 0.605408 0.961731
0.693787 0.623291 0.964691
0.807129 0.645752 0.967499
0.908630 0.673492 0.970123
0.990204 0.712463 0.966949
0.998108 0.758789 0.956482
0.139618 0.663757 0.960785
0.231415 0.666138 0.961365
0.382782 0.672821 0.961792
0.539764 0.688751 0.962524
0.663757 0.696014 0.963684
0.783844 0.709808 0.964111
0.884338 0.731842 0.966583
0.977631 0.762451 0.971252
0.998993 0.800079 0.958832
0.063782 0.764252 0.962677
0.165619 0.763947 0.964935
0.296509 0.762299 0.964142
0.436188 0.758667 0.964722
0.596771 0.762604 0.966400
0.743713 0.775452 0.972015
0.862396 0.796112 0.970520
0.959564 0.816223 0.972717
0.998505 0.842712 0.966156
0.188019 0.852966 0.973328
0.239655 0.852051 0.969971
0.336273 0.851715 0.973022
0.448334 0.850952 0.973145
0.566803 0.847107 0.969330
0.680084 0.842377 0.967407
0.828674 0.851959 0.973755
0.936584 0.871429 0.981903
1.000000 0.891418 0.976257
0.299988 0.932922 0.985260
0.334778 0.929016 0.981720
0.405823 0.925293 0.982910
0.492432 0.925232 0.982025
0.594421 0.927216 0.980499
0.697021 0.923859 0.981781
0.795593 0.923004 0.980499
0.905701 0.926849 0.981812
0.999969 0.941711 0.984344
0.403931 0.988220 0.996063
0.423035 0.992126 0.995575
0.475922 0.991180 0.999786
0.548096 0.989685 0.996094
0.635284 0.988220 0.996155
0.723999 0.992706 0.997009
0.813202 0.992371 0.994873
0.909943 0.993042 0.996552
1.000000 1.000000 1.000000
