luts/moody_film.cube
#Created by: Adobe Photoshop Export Color Lookup Plugin
TITLE "moody film"
#LUT size
LUT_3D_SIZE 33
#data domain
DOMAIN_MIN 0.0 0.0 0.0
DOMAIN_MAX 1.0 1.0 1.0
#LUT data points
0.109802 0.094116 0.082367
0.113739 0.101593 0.082367
0.118134 0.098297 0.082581
0.132263 0.095184 0.085602
0.140228 0.097656 0.081909
0.154938 0.104126 0.082214
0.170959 0.105774 0.079773
0.186523 0.105896 0.084045
0.201965 0.108063 0.080170
0.219025 0.106720 0.082062
0.246063 0.105896 0.084442
0.274384 0.108459 0.081573
0.297516 0.108307 0.078949
0.329254 0.107452 0.078064
0.365875 0.111023 0.080353
0.402802 0.113739 0.083374
0.437378 0.112762 0.079437
0.473022 0.112732 0.074585
0.513916 0.113464 0.072510
0.557831 0.114960 0.068634
0.600586 0.119110 0.066681
0.638306 0.125183 0.063507
0.679779 0.134583 0.056122
0.719543 0.144501 0.048767
0.759796 0.158386 0.035065
0.801758 0.169678 0.024872
0.840912 0.187866 0.010284
0.873047 0.212463 0.000549
0.904846 0.229797 0.000946
0.941589 0.255676 0.006805
0.965698 0.279877 0.000214
0.991913 0.309814 0.000000
1.000000 0.329407 0.000000
0.106140 0.101837 0.082489
0.113617 0.101715 0.082367
0.121338 0.102173 0.086029
0.135712 0.108276 0.085815
0.138245 0.102600 0.083221
0.154297 0.105194 0.082489
0.166260 0.106384 0.079803
0.185364 0.108551 0.081757
0.203461 0.106781 0.084747
0.222992 0.111694 0.087067
0.242279 0.110962 0.078156
0.269714 0.114746 0.079803
0.298828 0.113434 0.082367
0.329742 0.113556 0.081818
0.365295 0.114288 0.082031
0.401764 0.115906 0.082336
0.438354 0.118469 0.081329
0.475891 0.119476 0.075714
0.517700 0.119568 0.073212
0.559967 0.121796 0.073639
0.600952 0.126312 0.069489
0.643738 0.131073 0.064880
0.684692 0.140411 0.056915
0.724670 0.149963 0.048737
0.759399 0.160797 0.036102
0.799042 0.178833 0.028534
0.834991 0.196716 0.013275
0.871002 0.214233 0.001038
0.907257 0.237518 0.000488
0.935638 0.266632 0.003693
0.969269 0.290558 0.000488
0.995697 0.313843 0.003693
1.000000 0.337006 0.000122
0.109558 0.105652 0.086029
0.110138 0.105896 0.085693
0.121552 0.109314 0.082581
0.136047 0.109558 0.086365
0.141571 0.107239 0.086273
0.152832 0.109161 0.085419
0.176392 0.106995 0.082764
0.190643 0.112366 0.084534
0.204071 0.113861 0.082367
0.223724 0.114349 0.083038
0.248016 0.116089 0.083984
0.274139 0.118896 0.085754
0.303925 0.121185 0.083221
0.334656 0.121185 0.079224
0.367004 0.122772 0.081085
0.402954 0.123199 0.080658
0.441803 0.123291 0.078644
0.481354 0.124695 0.079193
0.522430 0.125763 0.075043
0.564209 0.127808 0.071594
0.605621 0.134216 0.070343
0.648193 0.141449 0.062714
0.686279 0.149109 0.054169
0.724884 0.158752 0.049347
0.763611 0.170349 0.037537
0.802307 0.185913 0.021240
0.839447 0.203156 0.009766
0.876465 0.224304 0.003357
0.907227 0.244385 0.000000
0.936066 0.268280 0.000641
0.972351 0.294617 0.003906
0.992188 0.317657 0.003571
0.996582 0.341156 0.003448
0.113373 0.116547 0.093384
0.113403 0.116547 0.086243
0.117523 0.113708 0.092804
0.132599 0.114044 0.089142
0.144684 0.117493 0.080200
0.159485 0.119781 0.085815
0.171509 0.117889 0.083313
0.189911 0.119385 0.081909
0.209167 0.123230 0.082550
0.228394 0.124298 0.086548
0.256165 0.123535 0.084259
0.280670 0.125977 0.087067
0.308655 0.127167 0.083954
0.341064 0.128418 0.082367
0.373230 0.129242 0.083221
0.408752 0.130676 0.082214
0.446869 0.133331 0.079163
0.485565 0.134857 0.076599
0.525787 0.135895 0.075745
0.567200 0.139099 0.073303
0.609528 0.145233 0.068939
0.651337 0.152527 0.064209
0.688446 0.161072 0.058105
0.727478 0.171570 0.048126
0.765533 0.181519 0.037231
0.801056 0.197479 0.025574
0.839417 0.215790 0.007721
0.875793 0.232574 0.000977
0.908203 0.252899 0.003387
0.939331 0.278473 0.002930
0.972717 0.302307 0.001160
0.998566 0.325470 0.003448
0.999664 0.348663 0.003906
0.109863 0.121979 0.087708
0.113495 0.125275 0.090393
0.117859 0.121765 0.090820
0.125366 0.124664 0.087524
0.141113 0.125000 0.090149
0.156525 0.130829 0.086060
0.178009 0.131805 0.086945
0.195496 0.132263 0.090851
0.211090 0.132690 0.089050
0.234436 0.130707 0.082214
0.259277 0.133484 0.085297
0.282898 0.135590 0.086060
0.312714 0.139008 0.088531
0.347626 0.138885 0.086761
0.379456 0.140625 0.084137
0.413422 0.142212 0.082275
0.452240 0.144440 0.080109
0.489746 0.146271 0.077545
0.528992 0.147491 0.077209
0.572235 0.151550 0.076111
0.613983 0.156708 0.067932
0.654327 0.163361 0.057648
0.694733 0.173126 0.052734
0.735107 0.182281 0.048859
0.771942 0.191986 0.036072
0.806671 0.210876 0.021698
0.843384 0.230988 0.010620
0.876251 0.248932 0.003815
0.911285 0.264832 0.003784
0.939301 0.289337 0.005219
0.970184 0.310486 0.000305
0.993378 0.336426 0.001099
1.000000 0.356812 0.004364
0.110260 0.133240 0.094025
0.111298 0.133179 0.094513
0.120636 0.132751 0.097443
0.125671 0.132935 0.091125
0.136414 0.136597 0.089783
0.155121 0.139923 0.092957
0.174316 0.143616 0.092560
0.193909 0.141907 0.090118
0.213409 0.146851 0.090302
0.237091 0.146820 0.085968
0.265717 0.147064 0.087372
0.291229 0.148071 0.086426
0.317566 0.150421 0.082397
0.350586 0.152313 0.081909
0.385193 0.153442 0.082367
0.419525 0.156372 0.082306
0.459167 0.159515 0.083160
0.497223 0.161804 0.078857
0.535278 0.164368 0.073486
0.576447 0.169067 0.071075
0.617676 0.175995 0.065125
0.658844 0.182892 0.057007
0.698090 0.190552 0.049896
0.737183 0.200043 0.042816
0.776306 0.210236 0.030640
0.811279 0.227997 0.014557
0.848938 0.244873 0.007843
0.884277 0.263123 0.004669
0.916809 0.279266 0.006256
0.943176 0.302704 0.000946
0.975098 0.324738 0.000031
0.997345 0.345917 0.000092
0.997223 0.368530 0.000702
0.112488 0.145081 0.100708
0.115784 0.147583 0.098145
0.120270 0.144928 0.098358
0.128082 0.142059 0.097504
0.140259 0.150574 0.099915
0.148041 0.150970 0.097290
0.164581 0.152191 0.088867
0.191254 0.160919 0.093140
0.219757 0.159454 0.099060
0.243958 0.160858 0.095459
0.266541 0.163177 0.090057
0.299042 0.165588 0.089630
0.326019 0.166809 0.085236
0.358551 0.167633 0.085144
0.391785 0.170044 0.088013
0.426361 0.173492 0.084473
0.464935 0.177216 0.078308
0.506012 0.181305 0.076294
0.544037 0.183746 0.071045
0.583771 0.187561 0.067657
0.623932 0.193542 0.065430
0.664917 0.201874 0.057922
0.705536 0.211609 0.046844
0.744141 0.223236 0.034821
0.781738 0.234131 0.024384
0.817749 0.249268 0.013702
0.852783 0.265167 0.006012
0.883881 0.282623 0.001678
0.912994 0.298096 0.004272
0.944580 0.320587 0.002625
0.976624 0.343567 0.000793
0.996918 0.365265 0.000610
0.996796 0.386749 0.000000
0.111176 0.161591 0.105713
0.111908 0.162201 0.105133
0.115417 0.159637 0.103790
0.123016 0.161865 0.101837
0.137024 0.160400 0.104828
0.148346 0.163208 0.104156
0.162537 0.166748 0.102112
0.185791 0.171356 0.095123
0.218170 0.178009 0.095337
0.243225 0.175171 0.097260
0.269592 0.180481 0.094727
0.298401 0.182495 0.090424
0.332092 0.188477 0.088043
0.367493 0.189606 0.083069
0.403290 0.190521 0.080780
0.438965 0.192902 0.080566
0.476379 0.198395 0.082306
0.515045 0.201843 0.077057
0.554810 0.205353 0.069885
0.594757 0.211029 0.064819
0.633118 0.217896 0.060852
0.673035 0.226196 0.053345
0.713409 0.236908 0.042755
0.750092 0.246246 0.030640
0.789246 0.254608 0.019073
0.827423 0.268372 0.008270
0.860229 0.283722 0.002777
0.887482 0.301270 0.000702
0.916565 0.318024 0.001190
0.948212 0.337921 0.003296
0.978912 0.358124 0.000854
0.998413 0.380981 0.000153
0.999298 0.399994 0.000000
0.106323 0.175262 0.111206
0.111450 0.178192 0.109802
0.111633 0.175323 0.106598
0.121857 0.178375 0.106567
0.129913 0.182861 0.106689
0.146698 0.177002 0.106903
0.156281 0.181854 0.103394
0.185150 0.183960 0.100647
0.202362 0.189667 0.100006
0.238312 0.197479 0.096313
0.274017 0.198395 0.090912
0.301392 0.205841 0.092163
0.335785 0.210114 0.091797
0.373657 0.213867 0.086121
0.410797 0.216766 0.081604
0.451447 0.219818 0.078857
0.489990 0.221558 0.078156
0.529083 0.227173 0.074371
0.569153 0.231659 0.065948
0.607788 0.236572 0.063019
0.643463 0.243500 0.058197
0.679474 0.250061 0.046265
0.719666 0.260193 0.035889
0.754578 0.272980 0.024658
0.791443 0.282104 0.011871
0.828339 0.293884 0.004150
0.863678 0.308167 0.000885
0.892334 0.326111 0.000671
0.922333 0.342621 0.002136
0.952271 0.360504 0.002808
0.981628 0.378387 0.002228
0.998810 0.399414 0.000153
1.000000 0.419159 0.003723
0.101166 0.196411 0.116241
0.104492 0.197388 0.114594
0.106567 0.196808 0.112061
0.114624 0.197571 0.109650
0.126923 0.200562 0.113495
0.144104 0.201965 0.113098
0.158630 0.202515 0.111237
0.175232 0.205109 0.109344
0.206055 0.207794 0.103149
0.227539 0.212097 0.101685
0.270905 0.223541 0.097229
0.307739 0.227966 0.090363
0.336090 0.236115 0.089935
0.374054 0.238678 0.088104
0.418488 0.240814 0.084198
0.457855 0.247375 0.082214
0.501129 0.250092 0.076752
0.538788 0.255066 0.072083
0.579254 0.261688 0.066559
0.618317 0.266266 0.061066
0.655945 0.271851 0.053436
0.692688 0.280609 0.041229
0.730347 0.288239 0.028198
0.765442 0.297974 0.018127
0.800598 0.309387 0.008698
0.833252 0.323425 0.004211
0.864258 0.335510 0.000610
0.893829 0.353119 0.000000
0.924713 0.369202 0.001404
0.954010 0.385590 0.003723
0.981110 0.401520 0.000885
0.998657 0.422668 0.000854
0.997162 0.439575 0.003021
0.091431 0.220703 0.124786
0.094757 0.221771 0.122314
0.096741 0.221405 0.119171
0.102814 0.222015 0.119629
0.121246 0.223480 0.116333
0.136139 0.226471 0.118317
0.155670 0.227020 0.117889
0.177124 0.228149 0.119843
0.194946 0.233551 0.110107
0.224335 0.233826 0.109070
0.256104 0.241791 0.103699
0.303986 0.251923 0.102264
0.343781 0.261993 0.095673
0.379242 0.265564 0.088531
0.418427 0.269592 0.082703
0.464325 0.273529 0.080048
0.507050 0.278625 0.077881
0.549713 0.285278 0.070251
0.590302 0.294525 0.064789
0.629669 0.300232 0.054718
0.665222 0.306488 0.043793
0.703979 0.313293 0.034271
0.741333 0.320404 0.023254
0.775726 0.328552 0.013367
0.808197 0.338654 0.006805
0.839783 0.353088 0.002686
0.870819 0.365570 0.002594
0.898407 0.379822 0.001892
0.927887 0.393829 0.001923
0.957489 0.411285 0.001495
0.982330 0.425446 0.000000
0.999329 0.444611 0.000427
0.996063 0.463501 0.002533
0.077972 0.247681 0.131500
0.080109 0.249054 0.126373
0.081055 0.247467 0.123749
0.091522 0.250031 0.123138
0.104340 0.252075 0.118988
0.126099 0.252899 0.124878
0.151062 0.253021 0.126923
0.171143 0.253052 0.122589
0.194122 0.258270 0.123322
0.219086 0.263794 0.115387
0.250305 0.268188 0.114594
0.285278 0.272125 0.107086
0.338715 0.286041 0.102966
0.380798 0.297821 0.095978
0.421509 0.300903 0.088257
0.462524 0.307831 0.081879
0.507629 0.311218 0.076508
0.552856 0.317139 0.069763
0.596283 0.327393 0.061157
0.637970 0.335358 0.050140
0.677307 0.341949 0.035095
0.714325 0.349731 0.025177
0.749176 0.356110 0.014465
0.784363 0.363892 0.008667
0.817352 0.372681 0.005798
0.843994 0.382782 0.001404
0.875885 0.394287 0.005280
0.904083 0.409851 0.003632
0.933258 0.423462 0.002533
0.961426 0.436401 0.002930
0.985565 0.449921 0.000977
0.999725 0.469269 0.000000
0.996063 0.486572 0.000916
0.052551 0.279327 0.140686
0.053040 0.279816 0.138489
0.053955 0.276703 0.131317
0.064362 0.280029 0.128448
0.088226 0.280396 0.128418
0.110168 0.281342 0.131409
0.137512 0.281677 0.130768
0.159424 0.283142 0.133545
0.184906 0.284332 0.132050
0.213409 0.293121 0.127930
0.247650 0.296753 0.122375
0.285492 0.302185 0.114716
0.323975 0.306793 0.105713
0.378723 0.321716 0.103271
0.422211 0.332794 0.093048
0.467682 0.339142 0.085754
0.510345 0.347992 0.080353
0.555267 0.351410 0.069885
0.600891 0.359650 0.057343
0.643585 0.369629 0.045990
0.684296 0.377625 0.031219
0.726166 0.385956 0.018738
0.759949 0.393921 0.006104
0.791473 0.402100 0.003235
0.824615 0.408936 0.002930
0.850647 0.417725 0.000000
0.881714 0.426880 0.002686
0.910004 0.439880 0.003540
0.938232 0.453461 0.003815
0.966400 0.465485 0.003601
0.988800 0.478882 0.001465
0.998505 0.496185 0.000092
0.997009 0.510254 0.001892
0.016388 0.311249 0.153076
0.016388 0.310822 0.146973
0.016785 0.310913 0.144653
0.024811 0.311127 0.138062
0.055054 0.310913 0.140350
0.083588 0.312683 0.142487
0.119263 0.312408 0.139557
0.149353 0.314880 0.139709
0.176392 0.318726 0.137329
0.205597 0.324554 0.141907
0.241028 0.328613 0.135071
0.278625 0.333435 0.127563
0.316925 0.340942 0.123291
0.361847 0.343597 0.109436
0.417206 0.360443 0.102112
0.465942 0.373230 0.086212
0.515503 0.380219 0.078033
0.558075 0.389404 0.072418
0.603302 0.394775 0.058594
0.647980 0.403687 0.045959
0.689667 0.412750 0.030273
0.729065 0.419983 0.016479
0.765167 0.430450 0.005127
0.797882 0.439178 0.002197
0.830322 0.446136 0.000580
0.858490 0.453033 0.000000
0.888916 0.463165 0.000000
0.916168 0.473206 0.001160
0.943237 0.483551 0.004730
0.970123 0.495758 0.004486
0.991974 0.506897 0.001495
0.999084 0.524475 0.000000
0.999023 0.537354 0.001221
0.001221 0.344360 0.161987
0.002228 0.346252 0.154419
0.000000 0.346924 0.153595
0.004913 0.347839 0.148712
0.016357 0.346558 0.150055
0.039459 0.346436 0.147705
0.088867 0.350098 0.150421
0.126495 0.350464 0.147430
0.166687 0.354492 0.146515
0.197937 0.359955 0.150146
0.234344 0.363708 0.149536
0.269104 0.366241 0.136444
0.312836 0.373444 0.133667
0.355225 0.382385 0.126862
0.401154 0.385742 0.115662
0.456360 0.402832 0.102081
0.512207 0.416534 0.083893
0.560913 0.424561 0.071167
0.603394 0.431335 0.062683
0.647705 0.439270 0.049774
0.689880 0.448853 0.034607
0.729614 0.457611 0.017059
0.765320 0.466156 0.007202
0.798523 0.476685 0.003357
0.833649 0.484406 0.001404
0.865692 0.490906 0.001923
0.894012 0.498810 0.000122
0.920441 0.508606 0.000275
0.948242 0.517883 0.001770
0.971283 0.526642 0.003937
0.993439 0.535919 0.001923
0.999756 0.552094 0.001099
0.996582 0.565186 0.002991
0.002014 0.383148 0.174042
0.001801 0.383911 0.168091
0.001465 0.384949 0.164215
0.003571 0.384583 0.160461
0.003204 0.384918 0.161774
0.009430 0.385498 0.157135
0.034851 0.388885 0.155609
0.095215 0.389313 0.160645
0.143311 0.392120 0.159088
0.186523 0.393768 0.162018
0.225800 0.399963 0.161407
0.261536 0.406097 0.150299
0.304352 0.407837 0.146240
0.350037 0.413788 0.137360
0.395142 0.422150 0.126282
0.441772 0.431091 0.118652
0.500854 0.447479 0.098053
0.557709 0.461914 0.081848
0.602966 0.469940 0.067383
0.645081 0.475769 0.054871
0.687164 0.483093 0.042175
0.727264 0.491241 0.023376
0.763855 0.501526 0.011139
0.799042 0.510132 0.003113
0.831604 0.519623 0.000763
0.867889 0.528137 0.003571
0.897827 0.535980 0.000000
0.924713 0.544312 0.000305
0.951111 0.553070 0.000000
0.972595 0.560455 0.001190
0.994659 0.568695 0.003052
0.999817 0.580933 0.011597
0.995056 0.593384 0.021973
0.000946 0.424408 0.187286
0.001007 0.423645 0.181458
0.001007 0.423645 0.177765
0.003784 0.424683 0.172882
0.002441 0.424988 0.170532
0.002655 0.427338 0.170135
0.005310 0.430450 0.166504
0.040649 0.430389 0.169373
0.110596 0.430908 0.170593
0.167999 0.432434 0.173584
0.212738 0.435425 0.175751
0.253357 0.442749 0.167572
0.293945 0.447144 0.161438
0.344391 0.451965 0.156342
0.387543 0.458038 0.144867
0.433167 0.465912 0.134338
0.485260 0.474487 0.125488
0.544434 0.491852 0.099670
0.599121 0.507843 0.082214
0.644745 0.514954 0.067017
0.684021 0.521515 0.053345
0.723419 0.526459 0.042664
0.764191 0.534576 0.029785
0.799530 0.544037 0.018372
0.834137 0.551941 0.011444
0.864899 0.560730 0.009918
0.898224 0.570129 0.006683
0.926605 0.579346 0.005280
0.953217 0.586914 0.007446
0.975525 0.596130 0.013824
0.997284 0.602509 0.021729
1.000000 0.612762 0.040588
0.998016 0.622528 0.058685
0.000000 0.466705 0.200958
0.001892 0.465118 0.195190
0.000946 0.466125 0.193787
0.001892 0.467438 0.188995
0.001556 0.468750 0.177246
0.002869 0.469788 0.178925
0.002197 0.472351 0.182434
0.007782 0.471710 0.180756
0.055664 0.472473 0.183777
0.136749 0.473633 0.185089
0.197174 0.474823 0.188354
0.240936 0.479431 0.184937
0.285828 0.485413 0.177734
0.333313 0.491455 0.173431
0.384369 0.497864 0.167419
0.428314 0.506226 0.160126
0.477661 0.510406 0.145996
0.528870 0.516937 0.131317
0.585663 0.536102 0.107971
0.642334 0.551392 0.086853
0.686432 0.559479 0.073547
0.721313 0.563995 0.065582
0.759918 0.571564 0.057129
0.800354 0.579163 0.049896
0.834564 0.586914 0.043823
0.863495 0.592834 0.037720
0.893921 0.600922 0.037476
0.923035 0.609528 0.036621
0.952484 0.619812 0.039734
0.976410 0.629761 0.053101
0.997559 0.635376 0.065613
1.000000 0.643982 0.085388
1.000000 0.653625 0.102234
0.000732 0.509338 0.220062
0.001801 0.507507 0.216003
0.001007 0.509521 0.213104
0.000336 0.510376 0.209229
0.000275 0.512665 0.196014
0.002655 0.513519 0.192688
0.003937 0.514404 0.197174
0.000854 0.513458 0.197449
0.015015 0.514221 0.199158
0.088928 0.515472 0.201965
0.173767 0.517090 0.205475
0.227478 0.519257 0.204926
0.276428 0.523682 0.199982
0.325256 0.531891 0.193146
0.376190 0.537567 0.187195
0.425354 0.542633 0.178680
0.471191 0.550537 0.172668
0.524689 0.554291 0.158081
0.570801 0.560333 0.139252
0.627533 0.579803 0.123260
0.682159 0.593750 0.098938
0.722839 0.600616 0.091522
0.758789 0.604980 0.086670
0.797852 0.613373 0.081268
0.831909 0.620636 0.080078
0.861725 0.627350 0.079163
0.890930 0.632111 0.082733
0.921478 0.638855 0.088654
0.948486 0.648834 0.091217
0.973053 0.660583 0.102783
0.994141 0.666229 0.113647
1.000000 0.672760 0.131653
1.000000 0.684814 0.145844
0.000977 0.552704 0.241669
0.000977 0.552765 0.238770
0.000092 0.553650 0.234741
0.000153 0.554535 0.230286
0.000610 0.555664 0.219971
0.002472 0.559021 0.216949
0.002319 0.558350 0.214600
0.002106 0.559143 0.216187
0.001373 0.558624 0.217896
0.039154 0.560730 0.219330
0.143219 0.561584 0.226166
0.211700 0.564606 0.227020
0.266754 0.565186 0.225586
0.319214 0.570374 0.220459
0.369904 0.576416 0.214844
0.421478 0.581299 0.205505
0.468597 0.586456 0.193909
0.518616 0.594116 0.187317
0.568542 0.598938 0.177734
0.614471 0.607269 0.159302
0.666321 0.620697 0.148102
0.716125 0.635620 0.123291
0.758118 0.640930 0.115936
0.796234 0.644989 0.116089
0.829865 0.652100 0.115662
0.858673 0.659790 0.116486
0.890808 0.665741 0.124603
0.917877 0.670349 0.131989
0.943848 0.677734 0.135681
0.969269 0.687378 0.145142
0.990662 0.694122 0.157806
1.000000 0.701599 0.174927
1.000000 0.713013 0.189972
0.000519 0.597626 0.265656
0.000519 0.597656 0.262878
0.000000 0.598907 0.259277
0.000336 0.599670 0.255280
0.003052 0.600098 0.245361
0.004669 0.601257 0.241943
0.001556 0.600983 0.237030
0.002350 0.604645 0.238892
0.002716 0.604126 0.245178
0.009888 0.604675 0.239563
0.103149 0.607361 0.247345
0.196167 0.607941 0.250610
0.259033 0.608459 0.251862
0.315521 0.610046 0.248260
0.366302 0.615112 0.243622
0.418823 0.619385 0.240356
0.466675 0.626709 0.228516
0.515106 0.630249 0.220459
0.566925 0.636536 0.214081
0.608246 0.639130 0.203125
0.653473 0.650024 0.186676
0.703583 0.659760 0.171051
0.751709 0.673859 0.157074
0.792480 0.681274 0.149811
0.824921 0.683838 0.152222
0.854492 0.689636 0.154755
0.888000 0.696899 0.162018
0.913666 0.701660 0.170929
0.938416 0.707672 0.175446
0.966675 0.714050 0.189240
0.986389 0.719666 0.203400
0.999847 0.729980 0.218658
0.998535 0.738831 0.233337
0.001343 0.639465 0.294373
0.001343 0.639526 0.291504
0.001434 0.641083 0.288757
0.001556 0.642151 0.283875
0.005005 0.643860 0.276184
0.005890 0.641846 0.271057
0.002014 0.641479 0.264832
0.001709 0.644958 0.265106
0.004303 0.647766 0.272064
0.003174 0.645630 0.270111
0.077148 0.648590 0.270203
0.177673 0.647644 0.275299
0.253204 0.647980 0.280609
0.310730 0.648956 0.281616
0.363098 0.652191 0.278381
0.414246 0.657745 0.273743
0.463226 0.662231 0.265930
0.509186 0.669220 0.255493
0.560394 0.670349 0.250580
0.606750 0.674561 0.245239
0.648071 0.678284 0.234283
0.691345 0.684265 0.221100
0.739532 0.696777 0.207184
0.785950 0.709137 0.195282
0.823059 0.715546 0.187744
0.848785 0.721527 0.195801
0.882385 0.726196 0.203583
0.914001 0.731018 0.210754
0.940247 0.735352 0.220184
0.963348 0.740509 0.233398
0.982056 0.747803 0.246368
0.998566 0.756500 0.262054
0.996490 0.762695 0.274353
0.001556 0.681000 0.329803
0.000885 0.681030 0.322235
0.003326 0.683624 0.324402
0.003571 0.684052 0.318756
0.003418 0.684326 0.309875
0.004120 0.682281 0.303497
0.000732 0.683807 0.298737
0.001648 0.684998 0.298279
0.003632 0.687317 0.301025
0.003632 0.686310 0.301758
0.070190 0.688171 0.306396
0.170654 0.688416 0.306091
0.251251 0.687195 0.310852
0.311157 0.690186 0.314941
0.361023 0.690155 0.313782
0.412903 0.694214 0.310455
0.461761 0.697388 0.305847
0.506989 0.702850 0.298096
0.554047 0.707733 0.293762
0.602356 0.709351 0.287598
0.643921 0.713287 0.282837
0.688782 0.718964 0.273651
0.730408 0.723785 0.258331
0.773621 0.732361 0.249268
0.817261 0.745178 0.236511
0.848206 0.747833 0.229065
0.879608 0.754364 0.242096
0.908234 0.757690 0.252930
0.934753 0.762054 0.259399
0.958130 0.767609 0.270721
0.980408 0.773010 0.284912
0.995728 0.781860 0.307343
0.998169 0.787567 0.319366
0.003021 0.721161 0.367676
0.002045 0.720123 0.361481
0.001678 0.721802 0.361755
0.003906 0.722809 0.358521
0.001160 0.724792 0.351257
0.004791 0.721497 0.341125
0.001953 0.723083 0.335449
0.002533 0.725372 0.335754
0.004486 0.724884 0.340698
0.006134 0.722748 0.335907
0.080383 0.722809 0.340637
0.178680 0.724792 0.343445
0.258942 0.724640 0.344025
0.319366 0.727356 0.351532
0.370697 0.728027 0.353790
0.420654 0.728546 0.353638
0.466400 0.732239 0.349213
0.511505 0.734894 0.345367
0.555939 0.740814 0.341248
0.598633 0.743652 0.332886
0.640381 0.745850 0.322083
0.681763 0.749451 0.323242
0.725037 0.756592 0.313110
0.764374 0.759644 0.303192
0.799286 0.760712 0.291168
0.843292 0.778534 0.277710
0.875824 0.781036 0.282562
0.902832 0.783569 0.292816
0.931244 0.787476 0.301727
0.950806 0.791382 0.313385
0.975372 0.796875 0.326813
0.994171 0.805481 0.347717
1.000000 0.811523 0.361877
0.004486 0.759796 0.407196
0.005951 0.757141 0.404907
0.000702 0.755707 0.401520
0.005463 0.756989 0.397888
0.002808 0.760223 0.390869
0.006683 0.759064 0.384979
0.004120 0.759674 0.378387
0.002777 0.762085 0.376495
0.003387 0.760559 0.377380
0.021118 0.759583 0.375427
0.107758 0.757294 0.379089
0.203308 0.758545 0.385193
0.275208 0.759308 0.386444
0.330597 0.760620 0.391052
0.381500 0.762451 0.396210
0.430054 0.761993 0.397369
0.475769 0.763489 0.396027
0.515656 0.767944 0.389557
0.558228 0.773468 0.384644
0.599854 0.775787 0.385895
0.639465 0.777466 0.378693
0.679352 0.779541 0.367615
0.719147 0.783600 0.363220
0.757599 0.788971 0.355896
0.796082 0.788239 0.352203
0.830109 0.789978 0.339874
0.868652 0.807983 0.327850
0.901581 0.811127 0.334686
0.925659 0.811523 0.347412
0.944885 0.818848 0.354706
0.974792 0.821259 0.370819
0.992035 0.827637 0.388733
0.999237 0.831146 0.400238
0.002380 0.790985 0.448120
0.003906 0.791809 0.446899
0.001740 0.789673 0.444763
0.003510 0.791565 0.441803
0.001007 0.793030 0.429901
0.002319 0.793640 0.426239
0.000610 0.794159 0.421478
0.002106 0.796265 0.420227
0.013123 0.793793 0.417023
0.066284 0.794830 0.419006
0.157532 0.793579 0.428497
0.240295 0.794006 0.429657
0.301849 0.795349 0.428101
0.352753 0.795868 0.428436
0.399506 0.795502 0.434875
0.445496 0.796875 0.442474
0.488342 0.798004 0.445251
0.528168 0.798035 0.439880
0.567200 0.801361 0.437683
0.603363 0.806488 0.432739
0.641937 0.809479 0.427673
0.679535 0.810547 0.420502
0.715424 0.810791 0.417175
0.753113 0.817505 0.412506
0.788300 0.818542 0.404938
0.826111 0.816071 0.398010
0.859375 0.822815 0.389099
0.890930 0.833801 0.385986
0.921295 0.840210 0.385406
0.943115 0.842712 0.394226
0.969055 0.847443 0.409271
0.989899 0.850616 0.426880
0.997620 0.852173 0.442688
0.002472 0.822571 0.492767
0.008057 0.823151 0.487579
0.010773 0.821991 0.487488
0.013214 0.822601 0.485718
0.014313 0.823425 0.478333
0.015167 0.822632 0.469330
0.017975 0.823761 0.467773
0.025360 0.825562 0.465942
0.066315 0.826233 0.467712
0.149506 0.827545 0.467346
0.229828 0.826752 0.470245
0.289673 0.826599 0.472839
0.342285 0.826202 0.475952
0.388641 0.825867 0.479370
0.430481 0.824249 0.481323
0.472900 0.823364 0.485382
0.511200 0.825195 0.491058
0.545746 0.828064 0.493530
0.580078 0.828827 0.490204
0.616669 0.832520 0.488525
0.648743 0.835938 0.480713
0.683472 0.837616 0.474091
0.717773 0.837402 0.470978
0.747803 0.838867 0.464874
